!!!COM: Schubert, Franz
!!!CDT: 1797/01/31/-1828/11/19/
!!!CNT: Austrian
!!!OTL: String Quartet No. 10 in E-flat Major, Op. 125, No. 1
!!!ODT: 1813/11//
!!!PDT: 1840
!!!SCA: D 87
!!!OPS: Op. 125
!!!ONM: No. 1
!!!OMV: Mvmt. 1
!!!OMD: Allegro piu moderato
**kern	**dynam	**kern	**dynam	**kern	**dynam	**kern	**dynam
*staff4	*staff4	*staff3	*staff3	*staff2	*staff2	*staff1	*staff1
*Icello	*Icello	*Iviola	*Iviola	*Ivioln	*Ivioln	*Ivioln	*Ivioln
*>[A,A,B]	*>[A,A,B]	*>[A,A,B]	*>[A,A,B]	*>[A,A,B]	*>[A,A,B]	*>[A,A,B]	*>[A,A,B]
*>norep[A,B]	*>norep[A,B]	*>norep[A,B]	*>norep[A,B]	*>norep[A,B]	*>norep[A,B]	*>norep[A,B]	*>norep[A,B]
*>A	*>A	*>A	*>A	*>A	*>A	*>A	*>A
*clefF4	*clefF4	*clefC3	*clefC3	*clefG2	*clefG2	*clefG2	*clefG2
*k[b-e-a-]	*k[b-e-a-]	*k[b-e-a-]	*k[b-e-a-]	*k[b-e-a-]	*k[b-e-a-]	*k[b-e-a-]	*k[b-e-a-]
*M2/2	*M2/2	*M2/2	*M2/2	*M2/2	*M2/2	*M2/2	*M2/2
*MM200	*MM200	*MM200	*MM200	*MM200	*MM200	*MM200	*MM200
=1-	=1-	=1-	=1-	=1-	=1-	=1-	=1-
(2E-\	pp	[2G/	pp	(2B-/	.	[2e-/	pp
2C/)	.	2G/]	.	2c/)	.	2e-/]	.
=2	=2	=2	=2	=2	=2	=2	=2
(4AA-/	.	(4C/	.	[2c/	.	(4f/	.
4GG/	.	4En/	.	.	.	4g/	.
4FF/)	.	4F/)	.	4c/]	.	4a-/)	.
4r	.	4r	.	4r	.	4r	.
=3	=3	=3	=3	=3	=3	=3	=3
1r	.	8F/	.	8f/	.	8a-/	.
.	.	8r	.	8r	.	8r	.
.	.	8G/	.	8f/	.	8b-\	.
.	.	8r	.	8r	.	8r	.
.	.	8A-/	.	8f/	.	8cc\	.
.	.	8r	.	8r	.	8r	.
.	.	4r	.	4r	.	4r	.
=4	=4	=4	=4	=4	=4	=4	=4
[2AA-/	.	(2E-/	.	(2A-/	.	(2c/	.
2AA-/]	.	2F/)	.	2B-/)	.	2d/)	.
=5	=5	=5	=5	=5	=5	=5	=5
(4GG/	.	(4E-/	.	[2B-/	.	(4e-/	.
4FF/	.	4D/	.	.	.	4f/	.
4EE-/)	.	4E-/)	.	4B-/]	.	4g/)	.
4r	.	4r	.	4r	.	4r	.
=6	=6	=6	=6	=6	=6	=6	=6
1r	.	8E-/	.	8e-/	.	8g/	.
.	.	8r	.	8r	.	8r	.
.	.	8F/	.	8e-/	.	8a-/	.
.	.	8r	.	8r	.	8r	.
.	.	8G/	.	8e-/	.	8b-\	.
.	.	8r	.	8r	.	8r	.
.	.	4r	.	4r	.	4r	.
=7	=7	=7	=7	=7	=7	=7	=7
2r	.	(2G/	.	1e-	.	(2ee-\	.
2GG/	.	2d-\)	.	.	.	2e-/)	.
=8	=8	=8	=8	=8	=8	=8	=8
[2AA-/	.	[2c\	.	[2e-/	.	(2e-/	.
4AA-/]	.	4c\]	.	4e-/]	.	4cc\)	.
4r	.	4r	.	4r	.	4r	.
=9	=9	=9	=9	=9	=9	=9	=9
2r	.	(2En/	.	1c	.	(2cc\	.
2EEn/	.	2B-/)	.	.	.	2c/)	.
=10	=10	=10	=10	=10	=10	=10	=10
[2FF/	.	[2A-/	.	[2c/	.	(2c/	.
4FF/]	.	4A-/]	.	4c/]	.	4a-/)	.
4r	.	4r	.	4r	.	4r	.
=11	=11	=11	=11	=11	=11	=11	=11
1r	.	4r	.	1r	.	4r	.
.	.	(4F/	.	.	.	(4f/	.
.	.	4A-/	.	.	.	4a-/	.
.	.	4c\)	.	.	.	4cc\)	.
=12	=12	=12	=12	=12	=12	=12	=12
(2D\	.	[2B-/	.	(2f/	.	(4.b-\	.
.	.	.	.	.	.	8a-/	.
4E-\)	.	4B-/]	.	4e-/)	.	4g/)	.
4r	.	4r	.	4r	.	4r	.
=13	=13	=13	=13	=13	=13	=13	=13
(4AA-/	.	(2.c\	.	1r	.	(8f/L	.
.	.	.	.	.	.	8en/	.
4GG/	.	.	.	.	.	8g/	.
.	.	.	.	.	.	8f/J	.
4FF/	.	.	.	.	.	8b-/L	.
.	.	.	.	.	.	8a-/	.
4BB-/)	.	4A-/)	.	.	.	8f/	.
.	.	.	.	.	.	8d/J)	.
=14	=14	=14	=14	=14	=14	=14	=14
(2E-\	.	[2G/	.	(2B-/	.	[2e-/	.
2C/)	f	2G/]	f	2c/)	f	2e-/]	f
=15	=15	=15	=15	=15	=15	=15	=15
(4AA-/	.	(4C/	.	[2c/	.	(4f/	.
4GG/	.	4En/	.	.	.	4g/	.
4FF/)	.	4F/)	.	4c/]	.	4a-/)	.
4r	.	4r	.	4r	.	4r	.
=16	=16	=16	=16	=16	=16	=16	=16
8F\	p	8c\	p	(8b-/L	p	(8bb-\L	p
8r	.	8r	.	16a-/Jk)	.	16aa-\Jk)	.
.	.	.	.	16r	.	16r	.
8G\	.	8c\	.	(8cc\L	.	(8ccc\L	.
8r	.	8r	.	16b-\Jk)	.	16bb-\Jk)	.
.	.	.	.	16r	.	16r	.
8A-\	.	8c\	.	(8dd-\L	.	(8ddd-\L	.
8r	.	8r	.	16cc\Jk)	.	16ccc\Jk)	.
.	.	.	.	16r	.	16r	.
4r	.	4r	.	4r	.	4r	.
=17	=17	=17	=17	=17	=17	=17	=17
[2AA-/	f	(2E-/	f	(2A-/	.	(2c/	.
2AA-/]	.	2F/)	.	2B-/)	f	2d/)	.
=18	=18	=18	=18	=18	=18	=18	=18
(4GG/	.	(4E-/	.	[2B-/	.	(4e-/	.
4FF/	.	4D/	.	.	.	4f/	.
4EE-/)	.	4E-/)	.	4B-/]	.	4g/)	.
4r	.	4r	.	4r	.	4r	.
=19	=19	=19	=19	=19	=19	=19	=19
8E-\	p	8B-/	p	(8a-/L	p	(8aa-\L	p
8r	.	8r	.	16g/Jk)	.	16gg\Jk)	.
.	.	.	.	16r	.	16r	.
8F\	.	8B-/	.	(8b-/L	.	(8bb-\L	.
8r	.	8r	.	16a-/Jk)	.	16aa-\Jk)	.
.	.	.	.	16r	.	16r	.
8G\	.	8B-/	.	(8cc\L	.	(8ccc\L	.
8r	.	8r	.	16b-\Jk)	.	16bb-\Jk)	.
.	.	.	.	16r	.	16r	.
4r	.	4r	.	4r	.	4r	.
=20	=20	=20	=20	=20	=20	=20	=20
2r	.	(2G/	.	1e-	.	[2ee-\	.
2GG/	.	4B-/	.	.	.	(8ee-/L]	.
.	.	.	.	.	.	8b-/	.
.	.	4d-\)	.	.	.	8g/	.
.	.	.	.	.	.	8e-/J)	.
=21	=21	=21	=21	=21	=21	=21	=21
[2AA-/	.	[2c\	.	[2e-/	.	(2e-/	.
4AA-/]	.	4c\]	.	4e-/]	.	4cc\)	.
4r	.	4r	.	4r	.	4r	.
=22	=22	=22	=22	=22	=22	=22	=22
2r	.	(2En/	.	1c	.	[2cc\	.
2EEn/	.	4G/	.	.	.	(8cc/L]	.
.	.	.	.	.	.	8g/	.
.	.	4B-/)	.	.	.	8en/	.
.	.	.	.	.	.	8c/J)	.
=23	=23	=23	=23	=23	=23	=23	=23
[2FF/	.	[2A-/	.	[2c/	.	(2c/	.
4FF/]	.	4A-/]	.	4c/]	.	4a-/)	.
4r	.	4r	.	4r	.	4r	.
=24	=24	=24	=24	=24	=24	=24	=24
1r	.	4r	.	1r	.	4r	.
.	.	(4F/	.	.	.	(4f/	.
.	.	4A-/	.	.	.	4a-/	.
.	.	4c\)	.	.	.	4cc\)	.
=25	=25	=25	=25	=25	=25	=25	=25
(2D\	.	[2B-/	.	(2f/	.	(4.b-\	.
.	.	.	.	.	.	8a-/	.
4E-\)	.	4B-/]	.	4e-/)	.	4g/)	.
4r	.	4r	.	4r	.	4r	.
=26	=26	=26	=26	=26	=26	=26	=26
(4AA-/	.	(2.c\	.	1r	.	(8f/L	.
.	.	.	.	.	.	8en/	.
4GG/	.	.	.	.	.	8g/	.
.	.	.	.	.	.	8f/J	.
4FF/	.	.	.	.	.	8b-/L	.
.	.	.	.	.	.	8a-/	.
4BB-/)	.	4A-/)	.	.	.	8f/	.
.	.	.	.	.	.	8d/J)	.
=27	=27	=27	=27	=27	=27	=27	=27
[1EE-	.	(8G/L	.	2G/ 2e-/	.	2G/ 2e-/	.
.	.	8B-/	.	.	.	.	.
.	.	8e-/	.	.	.	.	.
.	.	8B-/J)	.	.	.	.	.
.	.	(8G/L	.	2r	.	4r	.
.	.	8B-/	.	.	.	.	.
.	.	8e-/	.	.	.	(4gg\	.
.	.	8B-/J)	.	.	.	.	.
=28	=28	=28	=28	=28	=28	=28	=28
1EE-]	.	(8A-/L	.	1r	.	4.ff\	.
.	.	8B-/	.	.	.	.	.
.	.	8d/	.	.	.	.	.
.	.	8B-/J)	.	.	.	8ee-\	.
.	.	(8A-/L	.	.	.	4dd\	.
.	.	8B-/	.	.	.	.	.
.	.	8d/	.	.	.	4ff\)	.
.	.	8B-/J)	.	.	.	.	.
=29	=29	=29	=29	=29	=29	=29	=29
[1EE-	.	(8G/L	.	2r	.	(4.b-\	.
.	.	8B-/	.	.	.	.	.
.	.	8e-/	.	.	.	.	.
.	.	8B-/J)	.	.	.	16cc\LL	.
.	.	.	.	.	.	16dd\JJ	.
.	.	(8G/L	.	4r	.	8ee-\)	.
.	.	8B-/	.	.	.	8r	.
.	.	8e-/	.	(4g/	.	(4gg\	.
.	.	8B-/J)	.	.	.	.	.
=30	=30	=30	=30	=30	=30	=30	=30
1EE-]	.	(8A-/L	.	4.f/	.	4.ff\	.
.	.	8B-/	.	.	.	.	.
.	.	8d/	.	.	.	.	.
.	.	8B-/J)	.	8e-/	.	8ee-\	.
.	.	(8A-/L	.	4d/	.	4dd\	.
.	.	8B-/	.	.	.	.	.
.	.	8d/	.	4f/)	.	4ff\)	.
.	.	8B-/J)	.	.	.	.	.
=31	=31	=31	=31	=31	=31	=31	=31
1EE-	.	(8G/L	.	(4.B-/	.	(4.b-\	.
.	.	8B-/	.	.	.	.	.
.	.	8e-/	.	.	.	.	.
.	.	8B-/J)	.	16c/LL	.	16cc\LL	.
.	.	.	.	16d/JJ	.	16dd\JJ	.
.	.	(8G/L	.	8e-/)	.	8ee-\)	.
.	.	8B-/	.	8r	.	8r	.
.	.	8G/	.	(8e-/L	.	(8ee-\L	.
.	.	8E-/J)	.	8g/J)	.	8gg\J)	.
=32	=32	=32	=32	=32	=32	=32	=32
1C	.	(8En/L	.	(2b-\	.	(2bb-\	.
.	.	8G/	.	.	.	.	.
.	.	8c/	.	.	.	.	.
.	.	8G/J)	.	.	.	.	.
.	.	(8E/L	.	8cc/L	.	8ccc\L	.
.	.	8G/	.	8b-/	.	8bb-\	.
.	.	8c/	.	8a-/	.	8aa-\	.
.	.	8E/J)	.	8g/J)	.	8gg\J)	.
=33	=33	=33	=33	=33	=33	=33	=33
(1FF	.	(8F/L	.	(4a-/	.	(4aa-\	.
.	.	8c/	.	.	.	.	.
.	.	8B-/	.	4g/	.	4gg\	.
.	.	8c/J)	.	.	.	.	.
.	.	(8A-/L	.	4f/)	.	4ff\)	.
.	.	8c/	.	.	.	.	.
.	.	8A-/	.	(8f/L	.	(8ff\L	.
.	.	8F/J)	.	8g/J)	.	8gg\J)	.
=34	=34	=34	=34	=34	=34	=34	=34
1BB-)	.	(8D/L	.	(2a-/	.	(2aa-\	.
.	.	8F/	.	.	.	.	.
.	.	8B-/	.	.	.	.	.
.	.	8F/J)	.	.	.	.	.
.	.	(8D/L	.	8b-/L	.	8bb-\L	.
.	.	8F/	.	8a-/	.	8aa-\	.
.	.	8B-/	.	8g/	.	8gg\	.
.	.	8F/J)	.	8f/J)	.	8ff\J)	.
=35	=35	=35	=35	=35	=35	=35	=35
2.EE-/	.	8E-/L	.	(4g/	.	(4gg\	.
.	.	8B-/	.	.	.	.	.
.	.	8A-/	.	4f/	.	4ff\	.
.	.	8B-/J	.	.	.	.	.
.	.	8G/	.	4e-/)	.	4ee-\)	.
.	.	8r	.	.	.	.	.
4r	.	(4G/	.	(8B-/L	.	(8ee-\L	.
.	.	.	.	8Bn/J)	.	8dd\J)	.
=36	=36	=36	=36	=36	=36	=36	=36
[2E-\	.	2A-/	.	(2c/	.	(4.cc\	.
.	.	.	.	.	.	8ee-\)	.
8E-\]	.	8G/)	.	8B-/)	.	4b-\	.
4r	.	8r	.	8r	.	.	.
.	.	(4G/	.	(8B-/L	.	(8ee-\L	.
8r	.	.	.	8Bn/J)	.	8dd\J)	.
=37	=37	=37	=37	=37	=37	=37	=37
[2E-\	.	2A-/	.	(2c/	.	(4.cc\	.
.	.	.	.	.	.	8ee-\)	.
8E-\]	.	8G/)	.	4B-/)	.	4b-\	.
8r	.	8r	.	.	.	.	.
4r	.	(8e-\L	.	4r	.	(4gg\	.
.	.	8B-\J)	.	.	.	.	.
=38	=38	=38	=38	=38	=38	=38	=38
4BB-/	.	(8A-/L	.	4r	.	4.ff\	.
.	.	8B-/	.	.	.	.	.
4r	.	8d/	.	4B-/ 4f/	.	.	.
.	.	8B-/J)	.	.	.	8ee-\	.
2r	.	(8A-/L	.	4B-/ 4f/	.	4dd\	.
.	.	8B-/	.	.	.	.	.
.	.	8d/	.	4r	.	4ff\)	.
.	.	8B-/J)	.	.	.	.	.
=39	=39	=39	=39	=39	=39	=39	=39
4EE-/	.	(8G/L	.	4r	.	(4.b-\	.
.	.	8B-/	.	.	.	.	.
4r	.	8e-/	.	4G/ 4e-/	.	.	.
.	.	8B-/J)	.	.	.	16cc\LL	.
.	.	.	.	.	.	16dd\JJ	.
2r	.	(8G/L	.	4G/ 4e-/	.	8ee-\)	.
.	.	8B-/	.	.	.	8r	.
.	.	8e-/	.	4r	.	(8bb-\L	.
.	.	8B-/J)	.	.	.	8gg\J)	.
=40	=40	=40	=40	=40	=40	=40	=40
4BB-/	.	(8A-/L	.	4r	.	(4.ff\	.
.	.	8B-/	.	.	.	.	.
4r	.	8d/	.	4B-/ 4f/	.	.	.
.	.	8B-/J)	.	.	.	8ee-\	.
2r	.	(8A-/L	.	4B-/ 4f/	.	4dd\	.
.	.	8B-/	.	.	.	.	.
.	.	8d/	.	4r	.	4ff\)	.
.	.	8B-/J)	.	.	.	.	.
=41	=41	=41	=41	=41	=41	=41	=41
4EE-/	.	(8G/L	.	4r	.	(4.b-\	.
.	.	8B-/	.	.	.	.	.
2r	.	8e-/	.	4G/ 4e-/	.	.	.
.	.	8B-/J)	.	.	.	16cc\LL	.
.	.	.	.	.	.	16dd\JJ	.
.	.	(8G/L	.	4G/ 4e-/	.	8ee-\)	.
.	.	8B-/	.	.	.	8r	.
4GG/	.	8e-/	.	4r	.	(8eee-\L	.
.	.	8B-/J)	.	.	.	8gg\J)	.
=42	=42	=42	=42	=42	=42	=42	=42
2AA-/	.	(8en\L	.	(8g/L	.	(8gg\L	.
.	.	8f\	.	8f/	.	8ff\	.
.	.	8c\	.	8a-/	.	8aa-\	.
.	.	8A-\J)	.	8cc/J)	.	8ccc\J)	.
2BB-/	.	4G/	.	(4e-/	.	(4ee-\	.
.	.	4D/	.	8g/L	.	8gg\L	.
.	.	.	.	8f/J)	.	8ff\J)	.
=43	=43	=43	=43	=43	=43	=43	=43
2.BBn/	f	2.G/ 2.d/	f	2.G/ 2.d/	.	2.g\ 2.gg\	.
4r	.	4r	pp	(8.g/L	f	(8.gg\L	pp
.	.	.	.	16f#/Jk	.	16ff#\Jk	.
=44	=44	=44	=44	=44	=44	=44	=44
2r	.	2r	.	8g/)	.	8gg\)	.
.	.	.	.	8r	.	8r	.
.	.	.	.	(8.g/L	.	(8.gg\L	.
.	.	.	.	16f#/Jk	.	16ff#\Jk	.
4r	.	4r	.	8g/)	.	8gg\)	.
.	.	.	.	8r	.	8r	.
4E-\	p	4E-/	.	(4g/	.	(4gg\	.
=45	=45	=45	=45	=45	=45	=45	=45
2AA-/	.	8En/L	.	(8b-/L)	.	(8bb-\L)	.
.	.	8F/	.	8a-/	.	8aa-\	.
.	.	8G/	.	8g/	.	8gg\	.
.	.	8A-/J	.	8fn/J)	.	8ffn\J)	.
2BB-/	.	(4G/	.	(4e-/	.	(4ee-\	.
.	.	4D/)	.	4f/)	.	4ff\)	.
=46	=46	=46	=46	=46	=46	=46	=46
4EE-/	.	4E-/	.	8g/	.	8gg\	.
.	.	.	.	8r	.	8r	.
2r	.	2r	.	(8.g/L	.	(8.gg\L	.
.	.	.	.	16f#/Jk	.	16ff#\Jk	.
.	.	.	.	8g/)	.	8gg\)	.
.	.	.	.	8r	.	8r	.
4E-\	.	4E-/	.	4g/	.	4gg\	.
=47	=47	=47	=47	=47	=47	=47	=47
2AA-/	.	8En/L	.	8b-/L	.	8bb-\L	.
.	.	8F/	.	8a-/	.	8aa-\	.
.	.	8G/	.	8g/	.	8gg\	.
.	.	8A-/J	.	8fn/J	.	8ffn\J	.
2BB-/	.	4G/	.	(4e-/	.	(4ee-\	.
.	.	.	.	gq/	.	ggq/	.
.	.	8B-/L	.	4f/)	.	4ff\)	.
.	.	8A-/J	.	.	.	.	.
=48	=48	=48	=48	=48	=48	=48	=48
4E-\	.	4G/	.	4e-/	.	4ee-\	.
2r	.	2r	.	2r	.	2r	.
(4EE-/	f	(4E-/	.	(4e-/	f	(4e-/	f
=49	=49	=49	=49	=49	=49	=49	=49
2DD/	.	2D/	.	2d/	.	2d/	.
4FF/	.	4F/	.	4f/	.	4f/	.
4AA-/)	.	4A-/)	.	4a-/)	.	4a-/)	.
=50	=50	=50	=50	=50	=50	=50	=50
(4GG/	.	(4G/	.	(4g/	.	(4g/	.
4BB-/)	.	4B-/)	.	4b-\)	.	4b-\)	.
4r	.	4r	.	4r	.	4r	.
(4E-\	p	4B-/	p	(4e-/	.	(4g/	.
=51	=51	=51	=51	=51	=51	=51	=51
2D\	.	2.B-/	.	2f/	p	2a-/	.
4F\	.	.	.	4d/	.	4f/	.
4A-\)	.	4B-/	.	4B-/)	.	4d/)	.
=52	=52	=52	=52	=52	=52	=52	=52
(4G\	.	12B-/L	.	2B-/	.	(4e-/	.
.	.	12B-/	.	.	.	.	.
.	.	12B-/J	.	.	.	.	.
4B-\)	.	12B-/L	.	.	.	4B-/)	.
.	.	12B-/	.	.	.	.	.
.	.	12B-/J	.	.	.	.	.
4r	.	12B-/L	.	4r	.	4r	.
.	.	12B-/	f	.	.	.	.
.	.	12B-/J	.	.	.	.	.
(4EE-/	f	12B-/L	.	(4g/	.	(4gg\	.
.	.	12B-/	.	.	.	.	.
.	.	12B-/J	.	.	.	.	.
=53	=53	=53	=53	=53	=53	=53	=53
2DD/	.	12B-/L	.	12a-/L)	f	12aa-\L)	f
.	.	12B-/	.	12b-'/	.	12bb-'\	.
.	.	12B-/J	.	12a-'/J	.	12aa-'\J	.
.	.	12B-/L	.	12g'/L	.	12gg'\L	.
.	.	12B-/	.	12f'/	.	12ff'\	.
.	.	12B-/J	.	12e-'/J	.	12ee-'\J	.
4FF/	.	12B-/L	.	12d'/L	.	12dd'\L	.
.	.	12B-/	.	12e-'/	.	12ee-'\	.
.	.	12B-/J	.	12c'/J	.	12cc'\J	.
4AA-/)	.	12B-/L	.	12B-'/L	.	12b-'\L	.
.	.	12B-/	.	12c'/	.	12cc'\	.
.	.	12B-/J	.	12d'/J	.	12dd'\J	.
=54	=54	=54	=54	=54	=54	=54	=54
(4GG/	.	4B-/	.	12e-'/L	.	4ee-'\	.
.	.	.	.	12B-'/	.	.	.
.	.	.	.	12B-'/J	.	.	.
4BB-/)	.	2r	.	12B-/L	.	4b-\	.
.	.	.	.	12B-/	.	.	.
.	.	.	.	12B-/J	.	.	.
2r	.	.	.	12B-/L	.	4r	.
.	.	.	.	12B-/	.	.	.
.	.	.	.	12B-/J	.	.	.
.	.	(4E-/	p	12B-/L	.	(4gg\	p
.	.	.	.	12B-/	.	.	.
.	.	.	.	12B-/J	.	.	.
=55	=55	=55	=55	=55	=55	=55	=55
1r	p	2D/	.	12B-/L	.	12aa-\L)	.
.	.	.	.	12B-/	.	12bb-'\	.
.	.	.	.	12B-/J	.	12aa-'\J	.
.	.	.	.	12B-/L	.	12gg'\L	.
.	.	.	.	12B-/	.	12ff'\	.
.	.	.	.	12B-/J	.	12ee-'\J	.
.	.	4F/	.	12B-/L	.	12dd'\L	.
.	.	.	.	12B-/	.	12ee-'\	.
.	.	.	.	12B-/J	.	12cc'\J	.
.	.	4A-/)	.	12B-/L	.	12b-'\L	.
.	.	.	.	12B-/	.	12cc'\	.
.	.	.	.	12B-/J	.	12dd'\J	.
=56	=56	=56	=56	=56	=56	=56	=56
4r	.	4G/	.	2B-/	.	4ee-\	.
(4BB-/	.	(4B-/	.	.	.	(4b-\	.
4GG/	f	4G/	f	4B-/	f	4g/	.
4FF/)	.	4F/)	.	4Bn/	.	4f/)	.
=57	=57	=57	=57	=57	=57	=57	=57
(2EEn/	.	(2En/	.	2c/	.	(2en/	.
4GG/	.	4G/	.	2c/	.	4g/	.
4BB-/)	.	4B-/)	.	.	.	4b-\)	.
=58	=58	=58	=58	=58	=58	=58	=58
(4AA-/	.	(4A-/	.	2c/	.	(4a-/	.
4C/)	.	4c\)	.	.	.	4cc\)	.
2r	.	4r	.	2c/	.	4r	.
.	.	(4F/	p	.	.	(4aa-\	p
=59	=59	=59	=59	=59	=59	=59	=59
1r	p	2En/	.	2c/	.	12ccc\L)	.
.	.	.	.	.	.	12ddd-'\	.
.	.	.	.	.	.	12ccc'\J	.
.	.	.	.	.	.	12bb-'\L	.
.	.	.	.	.	.	12aa-'\	.
.	.	.	.	.	.	12gg'\J	.
.	.	4G/	.	2c/	.	12ff'\L	.
.	.	.	.	.	.	12een'\	.
.	.	.	.	.	.	12dd'\J	.
.	.	4B-/)	.	.	.	12cc'\L 12dd'\	.
.	.	.	.	.	.	12dd'\	.
.	.	.	.	.	.	12ee'\J	.
=60	=60	=60	=60	=60	=60	=60	=60
2r	.	(4A-/	.	2c/	.	(4ff\	.
.	.	4c\)	.	.	.	4cc\)	.
4r	.	4r	.	4c/	.	4r	.
(4AA-/	.	(4A-/	.	4d/	f	(4A-/	.
=61	=61	=61	=61	=61	=61	=61	=61
2GG/	f	2G/	f	2e-/	f	2G/	.
4BB-/	.	4B-/	.	2e-/	.	4B-/	.
4D-\)	.	4d-\)	.	.	.	4d-/)	.
=62	=62	=62	=62	=62	=62	=62	=62
(4C/	.	(4c\	.	2e-/	.	(4c/	.
4E-\)	.	4e-\)	.	.	.	4e-/)	.
4r	.	4r	.	2e-/	.	4r	.
(4A-\	.	(4A-/	.	.	.	(4cc\	.
=63	=63	=63	=63	=63	=63	=63	=63
2G\	.	2G/	.	2e-/	.	12dd-\L)	.
.	.	.	.	.	.	12ee-'\	.
.	.	.	.	.	.	12dd-'\J	.
.	.	.	.	.	.	12cc'\L	.
.	.	.	.	.	.	12b-'\	.
.	.	.	.	.	.	12a-'\J	.
4B-\	.	4B-/	.	2e-/	.	12g'/L	.
.	.	.	.	.	.	12a-'/	.
.	.	.	.	.	.	12f'/J	.
4d-\)	.	4d-\)	.	.	.	12e-'/L	.
.	.	.	.	.	.	12f'/	.
.	.	.	.	.	.	12g'/J	.
=64	=64	=64	=64	=64	=64	=64	=64
(4c\	.	12c\L	.	4e-/	.	(4a-/	.
.	.	12e-\	.	.	.	.	.
.	.	12e-\	.	.	.	.	.
4e-\)	.	12e-\	.	2r	.	4e-/)	.
.	.	12e-\	.	.	.	.	.
.	.	12e-\J	.	.	.	.	.
2r	.	12e-\L	p	.	.	4r	.
.	.	12e-\	.	.	.	.	.
.	.	12e-\	.	.	.	.	.
.	.	12e-\	p	(4A-/	.	(4cc\	.
.	.	12e-\	.	.	.	.	.
.	.	12e-\J	.	.	.	.	.
=65	=65	=65	=65	=65	=65	=65	=65
1r	.	12e-\L	.	2G/	p	12dd-\L)	.
.	.	12e-\	.	.	.	12ee-'\	.
.	.	12e-\J	.	.	.	12dd-'\J	.
.	.	12e-\L	.	.	.	12cc'\L	.
.	.	12e-\	.	.	.	12b-'\	.
.	.	12e-\J	.	.	.	12a-'\J	.
.	.	12e-\L	.	4B-/	.	12g'/L	.
.	.	12e-\	.	.	.	12a-'/	.
.	.	12e-\J	.	.	.	12f'/J	.
.	.	12e-\L	.	4d-/)	.	12e-'/L	.
.	.	12e-\	.	.	.	12f'/	.
.	.	12e-\J	.	.	.	12g'/J	.
=66	=66	=66	=66	=66	=66	=66	=66
4r	.	2e-\	.	4c'/	.	4a-'/	.
(4E-\	.	.	.	(4e-/	.	(4e-/	.
4C/	f	4e-\	f	4c/	f	4c/	.
4BB-/)	.	4en\	.	4B-/)	.	4B-/)	.
=67	=67	=67	=67	=67	=67	=67	=67
(2AAn/	.	2f\	.	(2An/	.	(2An/	.
4C/	.	2f\	.	4c/	.	4c/	.
4E-\)	.	.	.	4e-/)	.	4e-/)	.
=68	=68	=68	=68	=68	=68	=68	=68
(4D-\	.	2f\	.	(4d-/	.	(4d-/	.
4F\)	.	.	.	4f/)	.	4f/)	.
2r	.	2f\	p	4r	.	4r	.
.	.	.	.	(4B-/	.	(4b-\	p
=69	=69	=69	=69	=69	=69	=69	=69
1r	.	2f\	p	2An/	.	2an/	.
.	.	2f\	.	4c/	.	4cc\	.
.	.	.	.	4e-/)	.	4ee-\)	.
=70	=70	=70	=70	=70	=70	=70	=70
1r	.	2f\	.	(4d-/	.	(4dd-\	.
.	.	.	.	4f/	.	4ff\	.
.	.	4e-\	.	4d-/	.	4dd-\	.
.	.	4d-\	.	4B-/)	.	4b-\)	.
=71	=71	=71	=71	=71	=71	=71	=71
(4AAn/	.	(4An/	.	1f	.	1f	.
4C/)	p	4c\)	.	.	.	.	.
4r	.	4r	.	.	.	.	.
4E-\	pp	4e-\	pp	.	.	.	.
=72	=72	=72	=72	=72	=72	=72	=72
(4D-\	.	(4d-\	.	(4d-/	.	(4d-/	.
4F\	.	4f\	.	4f/	.	4f/	.
4D-\	.	4d-\	.	4d-/	.	4d-/	.
4BB-/)	.	4B-/)	.	4B-/)	.	4B-/)	.
=73	=73	=73	=73	=73	=73	=73	=73
2FF/	.	8F/	.	2f/	.	2f/	.
.	.	4F/	.	.	.	.	.
.	.	[8F/	.	.	.	.	.
2r	.	8F/]	.	2r	.	2r	.
.	.	4F/	.	.	.	.	.
.	.	[8F/	.	.	.	.	.
=74	=74	=74	=74	=74	=74	=74	=74
1r	.	8F/]	.	1r	.	2r	.
.	.	4F/	.	.	.	.	.
.	.	[8F/	.	.	.	.	.
.	.	8F/]	.	.	.	4r	.
.	.	4F/	.	.	.	.	.
.	.	.	.	.	.	4f/	.
.	.	8F/	.	.	.	.	.
=75	=75	=75	=75	=75	=75	=75	=75
(2B-\	p	(2B-/	p	1f	p	(2dd\	.
2An\)	.	2c\)	.	.	.	2ff\)	.
=76	=76	=76	=76	=76	=76	=76	=76
4G\	.	(4d\	.	(4d/	.	(4b-\	.
(2G\	.	2B-/	.	2e-/	.	2ee-\	.
4F\)	.	4B-/)	.	4f/)	.	4dd\)	.
=77	=77	=77	=77	=77	=77	=77	=77
(2E-\	.	(2An/	.	(2.f/	.	(8dd\L	.
.	.	.	.	.	.	8cc\	.
.	.	.	.	.	.	8ee-\	.
.	.	.	.	.	.	8cc\J)	.
4D\)	.	4B-/)	.	.	.	(8b-\L	.
.	.	.	.	.	.	8dd\	.
4B-\	.	4d\	.	8g/L	.	8gg\	.
.	.	.	.	8f/J)	.	8ff\J)	.
=78	=78	=78	=78	=78	=78	=78	=78
(4An\	.	(2c\	.	2.f/	.	(4.ff\	.
4F\)	.	.	.	.	.	.	.
.	.	.	.	.	.	8ee-\	.
4B-\	.	4d\)	.	.	.	4dd\)	.
4r	.	4r	.	4r	.	(4f/	.
=79	=79	=79	=79	=79	=79	=79	=79
2B-'\	.	4r	.	4r	.	2dd'\)	.
.	.	4d'\	.	4f'/	.	.	.
2An'\	.	4r	.	4r	.	2ff'\	.
.	.	4c'\	.	4f'/	.	.	.
=80	=80	=80	=80	=80	=80	=80	=80
4G'\	.	4r	.	4r	.	(4b-\	.
(2G\	.	2B-/	.	(2e-/	.	2ee-\	.
4F\)	.	4B-/	.	4f/)	.	4dd\)	.
=81	=81	=81	=81	=81	=81	=81	=81
(2E-\	.	(2An/	.	(4g-^/	.	(8dd\L	.
.	.	.	.	.	.	8cc\	.
.	.	.	.	4f/)	.	8ee-\	.
.	.	.	.	.	.	8cc\J)	.
4D\)	.	4B-/)	.	4f/	.	(8b-\L	.
.	.	.	.	.	.	8dd\	.
4B-\	.	4d\	.	(8gn/L	.	8gg\	.
.	.	.	.	8f/J)	.	8ff\J)	.
=82	=82	=82	=82	=82	=82	=82	=82
(2An\	.	[2f\	.	(2cc\	.	([4ff\	.
.	.	.	.	.	.	12ff\L]	.
.	.	.	.	.	.	12gg\	.
.	.	.	.	.	.	12ee-\J)	.
4B-\)	.	8f\]	.	8b-\)	.	4dd\	.
.	.	8r	.	8r	.	.	.
(4d^\	.	(4f^\	.	(4a-^/	.	(4bn\	.
=83	=83	=83	=83	=83	=83	=83	=83
4e-\)	.	4e-\)	.	4g/)	.	4cc\)	.
4r	.	4r	.	4r	.	8r	.
.	.	.	.	.	.	8g/	.
2r	.	2r	.	2r	.	(8f#/L	.
.	.	.	.	.	.	8g/	.
.	.	.	.	.	.	8cc/	.
.	.	.	.	.	.	8bn/J)	.
=84	=84	=84	=84	=84	=84	=84	=84
4r	.	4r	.	4r	.	(8dd\L	.
.	.	.	.	.	.	8cc\J)	.
4E-'\	.	4G'/	.	4c'/	.	2r	.
4r	.	4r	.	4r	.	.	.
(4d^\	.	(4f^\	.	(4a-^/	.	(8.bn^\L	.
.	.	.	.	.	.	16dd\Jk)	.
=85	=85	=85	=85	=85	=85	=85	=85
4e-\)	.	4e-\)	.	4g/)	.	4cc\	.
4r	.	4r	.	8r	.	8r	.
.	.	.	.	8G/	.	8g/	.
2r	.	2r	.	(8c/L	.	(8cc\L	.
.	.	.	.	8Bn/	.	8bn\	.
.	.	.	.	8d/	.	8dd\	.
.	.	.	.	8c/J)	.	8cc\J)	.
=86	=86	=86	=86	=86	=86	=86	=86
4r	.	4r	.	(8f/L	.	(8ff\L	.
.	.	.	.	8e-/J)	.	8ee-\J)	.
4E-'\	.	4G'/	.	4d'/	.	2r	.
4r	.	4r	.	4r	.	.	.
(4d^\	.	(4f^\	.	(4a-^/	.	(12bn^\L	.
.	.	.	.	.	.	12cc\	.
.	.	.	.	.	.	12dd\J)	.
=87	=87	=87	=87	=87	=87	=87	=87
4e-\)	.	4e-\)	.	4g/)	.	4cc\	.
4r	.	4r	.	4r	.	8r	.
.	.	.	.	.	.	8g/	.
2r	.	2r	.	4r	.	(8f#/L	.
.	.	.	.	.	.	8g/	.
.	.	.	.	8r	.	8a-/	.
.	.	.	.	8G/	.	8g/J)	.
=88	=88	=88	=88	=88	=88	=88	=88
2r	.	4r	.	(8c/L	.	(8cc\L	.
.	.	.	.	8Bn/	.	8bn\	.
.	.	8r	.	8d/	.	8dd\	.
.	.	8c\	.	8c/J)	.	8cc\J)	.
4r	.	(8f\L	.	(8f/L	.	(8ff\L	.
.	.	8e-\	.	8e-/	.	8ee-\	.
(4E-\	.	8an\	.	8an/	.	8aan\	.
.	.	8g\J)	.	8g/J)	.	8gg\J)	.
=89	=89	=89	=89	=89	=89	=89	=89
1F)	.	(2d\	.	(2f/	.	2b-\	.
.	.	.	.	.	.	ddq/	.
.	.	2e-\)	.	2an/)	.	(8cc\L	.
.	.	.	.	.	.	8bn\	.
.	.	.	.	.	.	8cc\	.
.	.	.	.	.	.	8ff\J)	.
=90	=90	=90	=90	=90	=90	=90	=90
8.BB-\L	pp	8.d\L	.	8.b-/L	pp	4b-\	.
16B-\Jk	.	16d\Jk	.	16f/Jk	.	.	.
8.B-\L	.	8.d\L	.	8.f/L	.	2r	.
16B-\Jk	.	16d\Jk	.	16f/Jk	.	.	.
8.B-\L	.	8.d\L	.	8.f/L	.	.	.
16B-\Jk	.	16d\Jk	.	16f/Jk	.	.	.
8.B-\L	.	8.d\L	.	8.f/L	.	(4bb-\	.
16B-\Jk	.	16d\Jk	.	16f/Jk	.	.	.
=91	=91	=91	=91	=91	=91	=91	=91
8.B-\L	.	8.e-\L	.	8.g-/L	.	2aan\	.
16B-\Jk	.	16e-\Jk	.	16g-/Jk	.	.	.
8.B-\L	.	8.e-\L	.	8.g-/L	.	.	.
16B-\Jk	.	16e-\Jk	.	16g-/Jk	.	.	.
8.B-\L	.	8.e-\L	.	8.g-/L	.	4ccc\	.
16B-\Jk	.	16e-\Jk	.	16g-/Jk	.	.	.
8.B-\L	.	8.e-\L	.	8.g-/L	.	4aa\)	.
16B-\Jk	.	16e-\Jk	.	16g-/Jk	.	.	.
=92	=92	=92	=92	=92	=92	=92	=92
8.B-\L	.	8.d\L	.	8.f/L	.	(4bb-\	.
16B-\Jk	.	16d\Jk	.	16f/Jk	.	.	.
8.B-\L	.	8.d\L	.	8.f/L	.	4ddd\)	.
16B-\Jk	.	16d\Jk	.	16f/Jk	.	.	.
8.B-\L	.	8.d\L	.	8.f/L	.	4r	.
16B-\Jk	.	16d\Jk	.	16f/Jk	.	.	.
8.B-\L	.	8.d\L	.	8.f/L	.	(4bb-\	.
16B-\Jk	.	16d\Jk	.	16f/Jk	.	.	.
=93	=93	=93	=93	=93	=93	=93	=93
8.B-\L	.	8.e-\L	.	8.g-/L	.	2eee-\	.
16B-\Jk	.	16e-\Jk	.	16g-/Jk	.	.	.
8.B-\L	.	8.e-\L	.	8.g-/L	.	.	.
16B-\Jk	.	16e-\Jk	.	16g-/Jk	.	.	.
8.B-\L	.	8.e-\L	.	8.g-/L	.	4ccc\	.
16B-\Jk	.	16e-\Jk	.	16g-/Jk	.	.	.
8.B-\L	.	8.e-\L	.	8.g-/L	.	4aan\)	.
16B-\Jk	.	16e-\Jk	.	16g-/Jk	.	.	.
=94	=94	=94	=94	=94	=94	=94	=94
8.B-\L	.	8.d\L	.	8.f/L	.	(4bb-\	.
16B-\Jk	.	16d\Jk	.	16f/Jk	.	.	.
8.B-\L	.	8.d\L	.	8.f/L	.	4ff\)	.
16B-\Jk	.	16d\Jk	.	16f/Jk	.	.	.
8.B-\L	.	8.d\L	.	8.f/L	.	4r	.
16B-\Jk	.	16d\Jk	.	16f/Jk	.	.	.
8.B-\L	.	8.d\L	.	8.f/L	.	(4b-\	.
16B-\Jk	.	16d\Jk	.	16f/Jk	.	.	.
=95	=95	=95	=95	=95	=95	=95	=95
8.B-\L	.	8.e-\L	.	8.g-/L	.	2an/	.
16B-\Jk	.	16e-\Jk	.	16g-/Jk	.	.	.
8.B-\L	.	8.e-\L	.	8.g-/L	.	.	.
16B-\Jk	.	16e-\Jk	.	16g-/Jk	.	.	.
8.B-\L	.	8.e-\L	.	8.g-/L	.	4cc\	.
16B-\Jk	.	16e-\Jk	.	16g-/Jk	.	.	.
8.B-\L	.	8.e-\L	.	8.g-/L	.	4a/)	.
16B-\Jk	.	16e-\Jk	.	16g-/Jk	.	.	.
=96	=96	=96	=96	=96	=96	=96	=96
8.B-\L	.	8.d\L	.	8.f/L	.	(4b-\	.
16B-\Jk	.	16d\Jk	.	16f/Jk	.	.	.
8.B-\L	.	8.d\L	.	8.f/L	.	4dd\)	.
16B-\Jk	.	16d\Jk	.	16f/Jk	.	.	.
8.B-\L	.	8.d\L	.	8.f/L	.	4r	.
16B-\Jk	.	16d\Jk	.	16f/Jk	.	.	.
8.B-\L	.	8.d\L	.	8.f/L	.	(4bb-\	.
16B-\Jk	.	16d\Jk	.	16f/Jk	.	.	.
=97	=97	=97	=97	=97	=97	=97	=97
8.B-\L	.	8.e-\L	.	8.g-/L	.	2eee-\	.
16B-\Jk	.	16e-\Jk	.	16g-/Jk	.	.	.
8.B-\L	.	8.e-\L	.	8.g-/L	.	.	.
16B-\Jk	.	16e-\Jk	.	16g-/Jk	.	.	.
8.B-\L	.	8.e-\L	.	8.g-/L	.	4ccc\	.
16B-\Jk	.	16e-\Jk	.	16g-/Jk	.	.	.
8.B-\L	.	8.e-\L	.	8.g-/L	.	4aan\)	.
16B-\Jk	.	16e-\Jk	.	16g-/Jk	.	.	.
=98	=98	=98	=98	=98	=98	=98	=98
4B-\	.	8.d\L	.	8.f/L	.	4bb-\	.
.	.	16B-\Jk	.	16B-/Jk	.	.	.
2r	.	8.B-/L	.	8.B-/L	.	2r	.
.	.	16B-/Jk	.	16B-/Jk	.	.	.
.	.	4B-/	.	4B-/	.	.	.
(4GG/	ff	(4G/	ff	(4g/	.	(4gg\	ff
=99	=99	=99	=99	=99	=99	=99	=99
2AA-^/	ff	2A-^/	.	2a-^/	.	2aa-^\	.
4FF/	.	4F/	.	4f/	.	4ff\	.
4DD/)	.	4D/)	.	4d/)	.	4dd\)	.
=100	=100	=100	=100	=100	=100	=100	=100
(4EE-/	.	(4E-/	.	(4e-/	.	(4ee-\	.
4GG/)	.	4G/)	.	4g/)	.	2gg\)	.
4r	.	4r	.	4r	.	.	.
(4en^\	p	[4b-^\	p	(4cc#^\	.	(4gg^\	p
=101	=101	=101	=101	=101	=101	=101	=101
(1f)	.	1b-]	.	1dd)	p	2ff\	.
.	.	.	.	.	.	4bb-\	.
.	.	.	.	.	.	4ddd\)	.
=102	=102	=102	=102	=102	=102	=102	=102
1F)	.	(4f\	.	(4an/	.	(4eee-\	.
.	.	2an\	.	2cc\	.	2ccc\	.
.	.	4cc\)	.	4ee-\)	.	4aan\)	.
=103	=103	=103	=103	=103	=103	=103	=103
4B-\	.	4b-\	.	4dd\	.	4bb-\	.
2r	.	(4D/	.	2r	.	2r	.
.	.	4F/	.	.	.	.	.
(4GG/	ff	4G/)	ff	(4g/	.	(4gg\	ff
=104	=104	=104	=104	=104	=104	=104	=104
2AA-^/	ff	(2A-^/	.	2a-^/	.	2aa-^\	.
4FF/	.	4F/	.	4f/	.	4ff\	.
4DD/)	.	4D/)	.	4d/)	.	4dd\)	.
=105	=105	=105	=105	=105	=105	=105	=105
(4EE-/	.	(4E-/	.	(4e-/	.	(4ee-\	.
4GG/)	.	4G/)	.	4g/)	.	2gg\)	.
4r	.	4r	.	4r	.	.	.
(4en\	.	[4b-\	p	(4cc#\	p	(4gg\	p
=106	=106	=106	=106	=106	=106	=106	=106
(1f)	p	1b-]	.	1dd)	.	2ff\	.
.	.	.	.	.	.	4bb-\	.
.	.	.	.	.	.	4ddd\)	.
=107	=107	=107	=107	=107	=107	=107	=107
1F)	.	(4f\	.	(4an/	.	(4eee-\	.
.	.	2an\	.	2cc\	.	2ccc\	.
.	.	4cc\)	.	4ee-\)	.	4aan\)	.
=108	=108	=108	=108	=108	=108	=108	=108
[1BB-	.	4b-\	.	4dd\	.	2bb-\	.
.	.	(4d\	.	(4f/	.	.	.
.	.	.	.	.	.	(ccq/	.
.	.	4c\	.	4e-/	.	(12b-/L)	.
.	.	.	.	.	.	12an/	.
.	.	.	.	.	.	12b-/J)	.
.	.	.	.	.	.	(ccq/	.
.	.	4B-/)	.	4d/)	.	(12b-/L)	.
.	.	.	.	.	.	12a/	.
.	.	.	.	.	.	12b-/J)	.
=109	=109	=109	=109	=109	=109	=109	=109
1BB-_	.	(2c\	.	(2e-/	.	(4ff\	.
.	.	.	.	.	.	4ee-\)	.
.	.	4d\	.	4f/	.	(8dd\L	.
.	.	.	.	.	.	8cc\	.
.	.	4e-\)	.	4g-/)	.	8b-\	.
.	.	.	.	.	.	8an\J)	.
=110	=110	=110	=110	=110	=110	=110	=110
1BB-_	.	4d'\	.	4f'/	.	2b-\	.
.	.	(4d\	.	(4f/	.	.	.
.	.	.	.	.	.	(ccq/	.
.	.	4c\	.	4e-/	.	(12b-/L)	.
.	.	.	.	.	.	12an/	.
.	.	.	.	.	.	12b-/J)	.
.	.	.	.	.	.	(ccq/	.
.	.	4B-/)	.	4d/)	.	(12b-/L)	.
.	.	.	.	.	.	12a/	.
.	.	.	.	.	.	12b-/J)	.
=111	=111	=111	=111	=111	=111	=111	=111
1BB-_	.	(2c\	.	(2e-/	.	(4ff\	.
.	.	.	.	.	.	4ee-\)	.
.	.	4d\	.	4f/	.	(8dd\L	.
.	.	.	.	.	.	8cc\	.
.	.	4e-\)	.	4g-/)	.	8b-\	.
.	.	.	.	.	.	8an\J)	.
=112	=112	=112	=112	=112	=112	=112	=112
4BB-/]	.	4d\	.	4f/	.	4b-\	.
4r	.	4r	.	4r	.	4r	.
4BB-/	.	4B-/	.	4d/	.	4b-\	.
4r	.	4r	.	4r	.	4r	.
=113	=113	=113	=113	=113	=113	=113	=113
4BB-/	.	4B-/	.	4d/	.	4b-\	.
4r	.	4r	.	4r	.	4r	.
2r	.	2r	.	2r	.	2r	.
=114:|!	=114:|!	=114:|!	=114:|!	=114:|!	=114:|!	=114:|!	=114:|!
*>B	*>B	*>B	*>B	*>B	*>B	*>B	*>B
[1GG^	.	(2d^\	.	(2f^/	.	2bn^\	.
.	.	4e-\	.	4g/	.	(4b'\	.
.	.	4f\)	.	4a-/)	.	4b'\)	.
=115	=115	=115	=115	=115	=115	=115	=115
1GG_	.	1e-	.	1g	.	4cc\	.
.	.	.	.	.	.	(8aa-\L	.
.	.	.	.	.	.	8gg\J	.
.	.	.	.	.	.	8ff\L	.
.	.	.	.	.	.	8ee-\	.
.	.	.	.	.	.	8dd\	.
.	.	.	.	.	.	8cc\J)	.
=116	=116	=116	=116	=116	=116	=116	=116
1GG_	.	(2d^\	.	(2f^/	.	2bn^\	.
.	.	4e-\	.	4g/	.	(4b'\	.
.	.	4f\)	.	4a-/)	.	4b'\)	.
=117	=117	=117	=117	=117	=117	=117	=117
1GG]	.	1e-	.	1g	.	4cc\	.
.	.	.	.	.	.	(8aa-\L	.
.	.	.	.	.	.	8gg\J	.
.	.	.	.	.	.	8ff\L	.
.	.	.	.	.	.	8ee-\	.
.	.	.	.	.	.	8dd\	.
.	.	.	.	.	.	8cc\J)	.
=118	=118	=118	=118	=118	=118	=118	=118
(4GG-^/	.	(2c^\	.	(2e-^/	.	(4b-^\	.
[2.FF/)	.	.	.	.	.	2an/	.
.	.	4d\	.	4f/	.	.	.
.	.	4e-\)	.	4g-/)	.	4a/)	.
=119	=119	=119	=119	=119	=119	=119	=119
1FF_	.	1d	.	1f	.	4b-\	.
.	.	.	.	.	.	(8ggn\L	.
.	.	.	.	.	.	8ff\J	.
.	.	.	.	.	.	8ee-\L	.
.	.	.	.	.	.	8dd\	.
.	.	.	.	.	.	8cc\	.
.	.	.	.	.	.	8b-\J)	.
=120	=120	=120	=120	=120	=120	=120	=120
1FF_	.	(2c\	.	(2e-/	.	(4b-\	.
.	.	.	.	.	.	2an/	.
.	.	4d\	.	4f/	.	.	.
.	.	4e-\)	.	4g-/)	.	4a/)	.
=121	=121	=121	=121	=121	=121	=121	=121
1FF]	.	1d	.	1f	.	4b-\	.
.	.	.	.	.	.	(8ggn\L	.
.	.	.	.	.	.	8ff\J	.
.	.	.	.	.	.	8ee-\L	.
.	.	.	.	.	.	8dd\	.
.	.	.	.	.	.	8cc\	.
.	.	.	.	.	.	8b-\J)	.
=122	=122	=122	=122	=122	=122	=122	=122
4F\	f	12c\L	f	4c/ 4f/	f	4an\ 4ff\	f
.	.	12f\	.	.	.	.	.
.	.	12f\J	.	.	.	.	.
2r	.	12f\L	.	2r	.	2r	.
.	.	12f\	.	.	.	.	.
.	.	12f\J	.	.	.	.	.
.	.	12f\L	.	.	.	.	.
.	.	12f\	.	.	.	.	.
.	.	12f\J	.	.	.	.	.
(4B-\	.	12f\L	.	(4dd\	.	(4ddd\	.
.	.	12f\	.	.	.	.	.
.	.	12f\J	.	.	.	.	.
=123	=123	=123	=123	=123	=123	=123	=123
2An\	.	2f\	.	2ee-\	.	2eee-\	.
4c\	.	2f\	.	4cc\	.	4ccc\	.
4e-\)	.	.	.	4an/)	.	4aan\)	.
=124	=124	=124	=124	=124	=124	=124	=124
(4d\	.	2f\	.	12b-\L	.	12bb-\L	.
.	.	.	.	12dd'\	.	12ddd'\	.
.	.	.	.	12cc'\J	.	12ccc'\J	.
4f\)	.	.	.	12b-'/L	.	12bb-'\L	.
.	.	.	.	12an'/	.	12aan'\	.
.	.	.	.	12g'/J	.	12gg'\J	.
4r	.	2f\	.	12f'/L	.	12ff'\L	.
.	.	.	.	12g'/	.	12gg'\	.
.	.	.	.	12en'/J	.	12een'\J	.
(4B-\	.	.	.	12f'/L	.	12ff'\L	.
.	.	.	.	12b-'/	.	12bb-'\	.
.	.	.	.	12dd'/J	.	12ddd'\J	.
=125	=125	=125	=125	=125	=125	=125	=125
2An\	.	2f\	.	(2ee-\	.	(2eee-\	.
4c\	.	2f\	.	4cc\	.	4ccc\	.
4e-\)	.	.	.	4an/)	.	4aan\)	.
=126	=126	=126	=126	=126	=126	=126	=126
(4d\	.	2f\	.	12b-'\L	.	12bb-'\L	.
.	.	.	.	12dd'\	.	12ddd'\	.
.	.	.	.	12cc'\J	.	12ccc'\J	.
4f\)	.	.	.	12b-'/L	.	12bb-'\L	.
.	.	.	.	12an'/	.	12aan'\	.
.	.	.	.	12g'/J	.	12gg'\J	.
4r	.	2f\	.	12f'/L	.	12ff'\L	.
.	.	.	.	12g'/	.	12gg'\	.
.	.	.	.	12en'/J	.	12een'\J	.
(4d\	.	.	.	8.f/L	.	8.ff\L	.
.	.	.	.	16dd/Jk	.	16ddd\Jk	.
=127	=127	=127	=127	=127	=127	=127	=127
2Bn\	.	2G\ 2g\	.	(2ff\	.	(2fff\	.
4d\	.	2G\ 2g\	.	4dd\	.	4ddd\	.
4f\)	.	.	.	4bn\)	.	4bbn\)	.
=128	=128	=128	=128	=128	=128	=128	=128
(4e-\	.	2G\ 2g\	.	12cc'\L	.	12ccc'\L	.
.	.	.	.	12ee-'\	.	12eee-'\	.
.	.	.	.	12dd'\J	.	12ddd'\J	.
4g\)	.	.	.	12cc'\L	.	12ccc'\L	.
.	.	.	.	12b-'\	.	12bb-'\	.
.	.	.	.	12a-'\J	.	12aa-'\J	.
4r	.	2G\ 2g\	.	12g'/L	.	12gg'\L	.
.	.	.	.	12a-'/	.	12aa-'\	.
.	.	.	.	12f#'/J	.	12ff#'\J	.
(4c\	.	.	.	12g'\L	.	12gg'\L	.
.	.	.	.	12cc'\	.	12ccc'\	.
.	.	.	.	12ee-'\J	.	12eee-'\J	.
=129	=129	=129	=129	=129	=129	=129	=129
2Bn\	.	2G\ 2g\	.	(2ff\	.	(2fff\	.
4d\	.	2G\ 2g\	.	4dd\	.	4ddd\	.
4f\)	.	.	.	4bn\)	.	4bbn\)	.
=130	=130	=130	=130	=130	=130	=130	=130
4e-'\	.	2G\ 2g\	.	12cc'\L	.	12ccc'\L	.
.	.	.	.	12ee-'\	.	12eee-'\	.
.	.	.	.	12dd'\J	.	12ddd'\J	.
4G'\	.	.	.	12cc'\L	.	12ccc'\L	.
.	.	.	.	12b-'\	.	12bb-'\	.
.	.	.	.	12a-'\J	.	12aa-'\J	.
4E-'\	.	2G\ 2g\	.	12g'/L	.	12gg'\L	.
.	.	.	.	12a-'/	.	12aa-'\	.
.	.	.	.	12f#'/J	.	12ff#'\J	.
4C'/	.	.	.	12g'/L	.	12gg'\L	.
.	.	.	.	12e-'/	.	12ee-'\	.
.	.	.	.	12c'/J	.	12cc'\J	.
=131	=131	=131	=131	=131	=131	=131	=131
4GG'/	.	12G\L 12g\	.	4G'/	.	4g'/	.
.	.	12G\	.	.	.	.	.
.	.	12G\	.	.	.	.	.
4G'\	.	12G\	.	4G'/ 4g'/	.	4G'/ 4g'/ 4gg'/	.
.	.	12G\	.	.	.	.	.
.	.	12G\J	.	.	.	.	.
2r	.	12G/L	.	2r	.	2r	.
.	.	12G/	.	.	.	.	.
.	.	12G/	.	.	.	.	.
.	.	12G/	.	.	.	.	.
.	.	12G/	.	.	.	.	.
.	.	12G/J	.	.	.	.	.
=132	=132	=132	=132	=132	=132	=132	=132
1r	p	(2En/	.	12c/L	.	(2bb-\	p
.	.	.	.	12c/	.	.	.
.	.	.	.	12c/J	.	.	.
.	.	.	.	12c/L	.	.	.
.	.	.	.	12c/	.	.	.
.	.	.	.	12c/J	.	.	.
.	.	4G/	p	12c/L	.	4gg\	.
.	.	.	.	12c/	.	.	.
.	.	.	.	12c/J	.	.	.
.	.	4B-/)	.	12c/L	.	4een\)	.
.	.	.	.	12c/	.	.	.
.	.	.	.	12c/J	.	.	.
=133	=133	=133	=133	=133	=133	=133	=133
1r	.	(4A-/	.	2c/	.	12ff'\L	.
.	.	.	.	.	.	12aa-'\	.
.	.	.	.	.	.	12gg'\J	.
.	.	4c\)	.	.	.	12ff'\L	.
.	.	.	.	.	.	12ee-'\	.
.	.	.	.	.	.	12dd-'\J	.
.	.	4r	.	2c/	.	12cc'\L	.
.	.	.	.	.	.	12dd-'\	.
.	.	.	.	.	.	12bn'\J	.
.	.	(4F/	.	.	.	12cc'\L	.
.	.	.	.	.	.	12ff'\	.
.	.	.	.	.	.	12aa-'\J	.
=134	=134	=134	=134	=134	=134	=134	=134
1r	.	2En/	.	2c/	.	(2bb-\	.
.	.	4G/	.	2c/	.	4gg\	.
.	.	4B-/)	.	.	.	4een\)	.
=135	=135	=135	=135	=135	=135	=135	=135
1r	.	(4A-/	.	2c/	.	12ff'\L	.
.	.	.	.	.	.	12aa-'\	.
.	.	.	.	.	.	12gg'\J	.
.	.	4c\)	.	.	.	12ff'\L	.
.	.	.	.	.	.	12ee-'\	.
.	.	.	.	.	.	12dd-'\J	.
.	.	4r	.	2c/	.	12cc'\L	.
.	.	.	.	.	.	12dd-'\	.
.	.	.	.	.	.	12bn'\J	.
.	.	8.A-/L	.	.	.	8.cc\L	.
.	.	16F/Jk	.	.	.	16ff\Jk	.
=136	=136	=136	=136	=136	=136	=136	=136
1r	.	(2D/	.	2B-/	.	(2aa-\	pp
.	.	4F/	pp	2B-/	.	4ff\	.
.	.	4A-/)	.	.	.	4dd\)	.
=137	=137	=137	=137	=137	=137	=137	=137
1r	pp	(4G/	.	2B-/	.	12ee-'\L	.
.	.	.	.	.	.	12gg'\	.
.	.	.	.	.	.	12ff'\J	.
.	.	4B-/)	.	.	.	12ee-'\L	.
.	.	.	.	.	.	12dd'\	.
.	.	.	.	.	.	12cc'\J	.
.	.	4r	.	2B-/	.	12b-'\L	.
.	.	.	.	.	.	12cc'\	.
.	.	.	.	.	.	12an'\J	.
.	.	(4E-/	.	.	.	12b-'\L	.
.	.	.	.	.	.	12ee-'\	.
.	.	.	.	.	.	12gg'\J	.
=138	=138	=138	=138	=138	=138	=138	=138
1r	.	2D/	.	2B-/	.	(2aa-\	.
.	.	4F/	.	2B-/	.	4ff\	.
.	.	4A-/)	.	.	.	4dd\)	.
=139	=139	=139	=139	=139	=139	=139	=139
1r	.	(4G/	.	2B-/	.	12ee-'\L	.
.	.	.	.	.	.	12gg'\	.
.	.	.	.	.	.	12ff'\J	.
.	.	4B-/	.	.	.	12ee-'\L	.
.	.	.	.	.	.	12dd'\	.
.	.	.	.	.	.	12cc'\J	.
.	.	4G/	.	2B-/	.	12b-'\L	.
.	.	.	.	.	.	12cc'\	.
.	.	.	.	.	.	12an'\J	.
.	.	4E-/)	.	.	.	12b-'\L	.
.	.	.	.	.	.	12ee-'\	.
.	.	.	.	.	.	12gg'\J	.
=140	=140	=140	=140	=140	=140	=140	=140
1r	.	8B-/	.	8B-/ 8d/	.	8ff\	.
.	.	8r	.	8r	.	8r	.
.	.	4r	.	12dd\L	.	12bb-\L	.
.	.	.	.	12dd\	.	12bb-\	.
.	.	.	.	12dd\J	.	12bb-\J	.
.	.	8B-/	.	8dd\	.	8bb-\	.
.	.	8r	.	8r	.	8r	.
.	.	4r	.	12dd\L	.	12ff\L	.
.	.	.	.	12dd\	.	12ff\	.
.	.	.	.	12dd\J	.	12ff\J	.
=141	=141	=141	=141	=141	=141	=141	=141
1r	.	8B-/	.	8dd\	.	8ff\	.
.	.	8r	.	8r	.	8r	.
.	.	4r	.	12f/L	.	12dd\L	.
.	.	.	.	12f/	.	12dd\	.
.	.	.	.	12f/J	.	12dd\J	.
.	.	8B-/	.	8f/	.	8dd\	.
.	.	8r	.	8r	.	8r	.
.	.	4r	.	12d/L	.	12b-\L	.
.	.	.	.	12d/	.	12b-\	.
.	.	.	.	12d/J	.	12b-\J	.
=142	=142	=142	=142	=142	=142	=142	=142
2r	.	4B-/	.	4d/	.	4b-\	.
.	.	4r	.	4r	.	4r	.
2r;	.	2r;	.	2r;	.	2r;	.
=143	=143	=143	=143	=143	=143	=143	=143
(2E-\	pp	[2G/	pp	(2B-/	.	[2e-/	.
2C/)	.	2G/]	pp	2c/)	pp	2e-/]	.
=144	=144	=144	=144	=144	=144	=144	=144
(4AA-/	.	(4C/	.	[2c/	.	(4f/	.
4GG/	.	4En/	.	.	.	4g/	.
4FF/)	.	4F/)	.	4c/]	.	4a-/)	.
4r	.	4r	.	4r	.	4r	.
=145	=145	=145	=145	=145	=145	=145	=145
1r	.	8F/	.	8f/	.	8a-/	.
.	.	8r	.	8r	.	8r	.
.	.	8G/	.	8f/	.	8b-\	.
.	.	8r	.	8r	.	8r	.
.	.	8A-/	.	8f/	.	8cc\	.
.	.	4r	.	4r	.	4r	.
.	.	8r	.	8r	.	8r	.
=146	=146	=146	=146	=146	=146	=146	=146
1AA-	.	(2E-/	.	(2A-/	.	(2c/	.
.	.	2F/)	.	2B-/)	.	2d/)	.
=147	=147	=147	=147	=147	=147	=147	=147
(4GG/	.	(4E-/	.	[2B-/	.	(4e-/	.
4FF/	.	4D/	.	.	.	4f/	.
4EE-/)	.	4E-/)	.	4B-/]	.	4g/)	.
4r	.	4r	.	4r	.	4r	.
=148	=148	=148	=148	=148	=148	=148	=148
1r	.	8E-/	.	8e-/	.	8g/	.
.	.	8r	.	8r	.	8r	.
.	.	8F/	.	8e-/	.	8a-/	.
.	.	8r	.	8r	.	8r	.
.	.	8G/	.	8e-/	.	8b-\	.
.	.	4r	.	4r	.	4r	.
.	.	8r	.	8r	.	8r	.
=149	=149	=149	=149	=149	=149	=149	=149
2r	.	(2G/	.	1e-	.	(2ee-\	.
2GG/	.	2d-\)	.	.	.	2e-/)	.
=150	=150	=150	=150	=150	=150	=150	=150
[2AA-/	.	[2c\	.	[2e-/	.	(2e-/	.
4AA-/]	.	4c\]	.	4e-/]	.	4cc\)	.
4r	.	4r	.	4r	.	4r	.
=151	=151	=151	=151	=151	=151	=151	=151
2r	.	(2En/	.	1c	.	(2cc\	.
2EEn/	.	2B-/)	.	.	.	2c/)	.
=152	=152	=152	=152	=152	=152	=152	=152
[2FF/	.	[2A-/	.	[2c/	.	(2c/	.
4FF/]	.	4A-/]	.	4c/]	.	4a-/)	.
4r	.	4r	.	4r	.	4r	.
=153	=153	=153	=153	=153	=153	=153	=153
1r	.	4r	.	1r	.	4r	.
.	.	(4F/	.	.	.	(4f/	.
.	.	4A-/	.	.	.	4a-/	.
.	.	4c\)	.	.	.	4cc\)	.
=154	=154	=154	=154	=154	=154	=154	=154
(2D\	.	[2B-/	.	(2f/	.	(4.b-\	.
.	.	.	.	.	.	8a-/	.
4E-\)	.	4B-/]	.	4e-/)	.	4g/)	.
4r	.	4r	.	4r	.	4r	.
=155	=155	=155	=155	=155	=155	=155	=155
(4AA-/	.	(2.c\	.	1r	.	(8f/L	.
.	.	.	.	.	.	8en/	.
4GG/	.	.	.	.	.	8g/	.
.	.	.	.	.	.	8f/J	.
4FF/	.	.	.	.	.	8b-/L	.
.	.	.	.	.	.	8a-/	.
4BB-/)	.	4A-/)	.	.	.	8f/	.
.	.	.	.	.	.	8d/J)	.
=156	=156	=156	=156	=156	=156	=156	=156
(2E-\	f	[2G/	f	(2B-/	f	[2e-/	.
2C/)	.	2G/]	.	2c/)	.	2e-/]	.
=157	=157	=157	=157	=157	=157	=157	=157
(4AA-/	.	4C/	.	[2c/	.	(4f/	.
4GG/	.	4En/	.	.	.	4g/	.
4FF/)	.	4F/	.	4c/]	.	4a-/)	.
4r	.	4r	.	4r	.	4r	.
=158	=158	=158	=158	=158	=158	=158	=158
8F\	p	8c\	p	(8b-/L	p	(8bb-\L	p
8r	.	8r	.	16a-/Jk)	.	16aa-\Jk)	.
.	.	.	.	16r	.	16r	.
8G\	.	8c\	.	(8cc\L	.	(8ccc\L	.
8r	.	8r	.	16b-\Jk)	.	16bb-\Jk)	.
.	.	.	.	16r	.	16r	.
8A-\	.	8c\	.	(8dd-\L	.	(8ddd-\L	.
8r	.	8r	.	16cc\Jk)	.	16ccc\Jk)	.
.	.	.	.	16r	.	16r	.
4r	.	4r	.	4r	.	4r	.
=159	=159	=159	=159	=159	=159	=159	=159
[2AA-/	.	(2E-/	.	(2A-/	f	(2c/	.
2AA-/]	f	2F/)	f	2B-/)	.	2d/)	.
=160	=160	=160	=160	=160	=160	=160	=160
(4GG/	.	(4E-/	.	[2B-/	.	(4e-/	.
4FF/	.	4D/	.	.	.	4f/	.
4EE-/)	.	4E-/)	.	4B-/]	.	4g/)	.
4r	.	4r	.	4r	.	4r	.
=161	=161	=161	=161	=161	=161	=161	=161
8E-\	.	8B-/	.	(8a-/L	.	(8aa-\L	p
8r	p	8r	p	16g/Jk)	p	16gg\Jk)	.
.	.	.	.	16r	.	16r	.
8F\	.	8B-/	.	(8b-/L	.	(8bb-\L	.
8r	.	8r	.	16a-/Jk)	.	16aa-\Jk)	.
.	.	.	.	16r	.	16r	.
8G\	.	8B-/	.	(8cc\L	.	(8ccc\L	.
8r	.	8r	.	16b-\Jk)	.	16bb-\Jk)	.
.	.	.	.	16r	.	16r	.
4r	.	4r	.	4r	.	4r	.
=162	=162	=162	=162	=162	=162	=162	=162
2r	.	(2G/	.	1e-	.	[2ee-\	.
2GG/	.	4B-/	.	.	.	(8ee-\L]	.
.	.	.	.	.	.	8b-\	.
.	.	4d-\)	.	.	.	8g\	.
.	.	.	.	.	.	8e-\J)	.
=163	=163	=163	=163	=163	=163	=163	=163
[2AA-/	.	2.c\	.	[2e-/	.	(2e-/	.
4AA-/]	.	.	.	4e-/]	.	4cc\)	.
4r	.	4r	.	4r	.	4r	.
=164	=164	=164	=164	=164	=164	=164	=164
2r	.	(2En/	.	1c	.	[2cc\	.
2EEn/	.	4G/	.	.	.	(8cc/L]	.
.	.	.	.	.	.	8g/	.
.	.	4B-/)	.	.	.	8en/	.
.	.	.	.	.	.	8c/J)	.
=165	=165	=165	=165	=165	=165	=165	=165
[2FF/	.	2.A-/	.	[2c/	.	(2c/	.
4FF/]	.	.	.	4c/]	.	4a-/)	.
4r	.	4r	.	4r	.	4r	.
=166	=166	=166	=166	=166	=166	=166	=166
1r	.	4r	.	1r	.	4r	.
.	.	(4F/	.	.	.	(4f/	.
.	.	4A-/	.	.	.	4a-/	.
.	.	4c\)	.	.	.	4cc\)	.
=167	=167	=167	=167	=167	=167	=167	=167
(2D\	.	2.B-/	.	(2f/	.	(4.b-\	.
.	.	.	.	.	.	8a-/	.
4E-\)	.	.	.	4e-/)	.	4g/)	.
4r	.	4r	.	4r	.	4r	.
=168	=168	=168	=168	=168	=168	=168	=168
(4AA-/	.	(2.c\	.	1r	.	(8f/L	.
.	.	.	.	.	.	8en/	.
4GG/	.	.	.	.	.	8g/	.
.	.	.	.	.	.	8f/J	.
4FF/	.	.	.	.	.	8b-/L	.
.	.	.	.	.	.	8a-/	.
4BB-/)	.	4A-/)	.	.	.	8f/	.
.	.	.	.	.	.	8d/J)	.
=169	=169	=169	=169	=169	=169	=169	=169
[1EE-	.	(8G/L	.	2B-/ 2e-/	.	2G/ 2e-/	.
.	.	8B-/	.	.	.	.	.
.	.	8e-/	.	.	.	.	.
.	.	8B-/J)	.	.	.	.	.
.	.	(8G/L	.	2r	.	4r	.
.	.	8B-/	.	.	.	.	.
.	.	8e-/	.	.	.	(4gg\	.
.	.	8B-/J)	.	.	.	.	.
=170	=170	=170	=170	=170	=170	=170	=170
1EE-_	.	(8A-/L	.	1r	.	4.ff\	.
.	.	8B-/	.	.	.	.	.
.	.	8d/	.	.	.	.	.
.	.	8B-/J)	.	.	.	8ee-\	.
.	.	(8A-/L	.	.	.	4dd\	.
.	.	8B-/	.	.	.	.	.
.	.	8d/	.	.	.	4ff\)	.
.	.	8B-/J)	.	.	.	.	.
=171	=171	=171	=171	=171	=171	=171	=171
2EE-/]	.	(8G/L	.	2r	.	(4.b-\	.
.	.	8e-/	.	.	.	.	.
.	.	8B-/	.	.	.	.	.
.	.	8G/J)	.	.	.	16cc\LL	.
.	.	.	.	.	.	16dd\JJ	.
[2CC/	.	(8E-/L	.	4r	.	8ee-\)	.
.	.	8G/	.	.	.	8r	.
.	.	8c/	.	(4e-/	.	(4ee-\	.
.	.	8G/J)	.	.	.	.	.
=172	=172	=172	=172	=172	=172	=172	=172
1CC_	.	(8F/L	.	4.d/	.	4.dd\	.
.	.	8G/	.	.	.	.	.
.	.	8Bn/	.	.	.	.	.
.	.	8G/J)	.	8c/	.	8cc\	.
.	.	(8F/L	.	4Bn/	.	4bn\	.
.	.	8G/	.	.	.	.	.
.	.	8B/	.	4d/)	.	4dd\)	.
.	.	8G/J)	.	.	.	.	.
=173	=173	=173	=173	=173	=173	=173	=173
1CC]	.	(8E-/L	.	(4.G/	.	(4.g/	.
.	.	8G/	.	.	.	.	.
.	.	8c/	.	.	.	.	.
.	.	8G/J)	.	16An/LL	.	16an/LL	.
.	.	.	.	16Bn/JJ	.	16bn\JJ)	.
.	.	(8E-/L	.	8c/)	.	8cc\	.
.	.	8G/	.	8r	.	8r	.
.	.	8c/	.	(4e-/	.	4ee-\	.
.	.	8G/J)	.	.	.	.	.
=174	=174	=174	=174	=174	=174	=174	=174
(2AA-/	.	(8A-\L	.	2cc\)	.	2ccc\	.
.	.	8c\	.	.	.	.	.
.	.	8e-\	.	.	.	.	.
.	.	8c\J)	.	.	.	.	.
.	.	.	.	(ccq/	.	(cccq/	.
2EE-/	.	(8G/L	.	(8b-\L)	.	(8bb-\L)	.
.	.	8B-/	.	8an\	.	8aan\	.
.	.	8e-/	.	8b-\	.	8bb-\	.
.	.	8B-/J)	.	8cc\J)	.	8ccc\J)	.
=175	=175	=175	=175	=175	=175	=175	=175
2DD/	.	(8A-/L	.	(4.b-\	.	(4.bb-\	.
.	.	8B-/	.	.	.	.	.
.	.	8F/	.	.	.	.	.
.	.	8B-/J)	.	8a-/	.	8aa-\	.
2EE-/)	.	(8E-/L	.	8g/)	.	8gg\)	.
.	.	8G/	.	8r	.	8r	.
.	.	8B-/	.	(4e-/	.	(4ee-\	.
.	.	8G/J)	.	.	.	.	.
=176	=176	=176	=176	=176	=176	=176	=176
(2AA-/	.	(8A-\L	.	2cc\)	.	2ccc\)	.
.	.	8c\	.	.	.	.	.
.	.	8e-\	.	.	.	.	.
.	.	8c\J)	.	.	.	.	.
2EE-/	.	(8G/L	.	(8b-\L	.	(8bb-\L	.
.	.	8B-/	.	8an\	.	8aan\	.
.	.	8e-/	.	8cc\	.	8ccc\	.
.	.	8B-/J)	.	8b-\J)	.	8bb-\J)	.
=177	=177	=177	=177	=177	=177	=177	=177
2DD/)	.	(8A-/L	.	(4.b-\	.	(4.bb-\	.
.	.	8B-/	.	.	.	.	.
.	.	8F/	.	.	.	.	.
.	.	8B-/J)	.	8a-/	.	8aa-\	.
4EE-/	.	8E-/	.	4g/)	.	4gg\)	.
.	.	8r	.	.	.	.	.
4r	.	(4G/	.	(8B-/L	.	(8ee-\L	.
.	.	.	.	8Bn/J)	.	8dd\J)	.
=178	=178	=178	=178	=178	=178	=178	=178
[2E-\	.	2A-/	.	(2c/	.	(4.cc\	.
.	.	.	.	.	.	8ee-\)	.
4E-\]	.	8G/)	.	8B-/)	.	4b-\	.
.	.	8r	.	8r	.	.	.
4r	.	(4G/	.	(8B-/L	.	(8ee-\L	.
.	.	.	.	8Bn/J)	.	8dd\J)	.
=179	=179	=179	=179	=179	=179	=179	=179
[2E-\	.	2A-/	.	(2c/	.	(4.cc\	.
.	.	.	.	.	.	8ee-\)	.
4E-\]	.	8G/)	.	4B-/)	.	4b-\	.
.	.	8r	.	.	.	.	.
4r	.	(8e-\L	.	4r	.	(4gg\	.
.	.	8B-\J)	.	.	.	.	.
=180	=180	=180	=180	=180	=180	=180	=180
4BB-/	.	(8A-/L	.	4r	.	4.ff\	.
.	.	8B-/	.	.	.	.	.
4r	.	8d/	.	4B-/ 4f/	.	.	.
.	.	8B-/J)	.	.	.	8ee-\	.
2r	.	(8A-/L	.	4B-/ 4f/	.	4dd\	.
.	.	8B-/	.	.	.	.	.
.	.	8d/	.	4r	.	4ff\)	.
.	.	8B-/J)	.	.	.	.	.
=181	=181	=181	=181	=181	=181	=181	=181
4EE-/	.	(8G/L	.	4r	.	(4.b-\	.
.	.	8B-/	.	.	.	.	.
4r	.	8e-/	.	4G/ 4e-/	.	.	.
.	.	8B-/J)	.	.	.	16cc\LL	.
.	.	.	.	.	.	16dd\JJ	.
2r	.	(8G/L	.	4G/ 4e-/	.	8ee-\)	.
.	.	8B-/	.	.	.	8r	.
.	.	8e-/	.	4r	.	(8bb-\L	.
.	.	8B-/J)	.	.	.	8gg\J)	.
=182	=182	=182	=182	=182	=182	=182	=182
4BB-/	.	(8A-/L	.	4r	.	(4.ff\	.
.	.	8B-/	.	.	.	.	.
4r	.	8d/	.	4B-/ 4f/	.	.	.
.	.	8B-/J)	.	.	.	8ee-\	.
2r	.	(8A-/L	.	4B-/ 4f/	.	4dd\	.
.	.	8B-/	.	.	.	.	.
.	.	8d/	.	4r	.	4ff\)	.
.	.	8B-/J)	.	.	.	.	.
=183	=183	=183	=183	=183	=183	=183	=183
4EE-/	.	(8G/L	.	4r	.	(4.b-\	.
.	.	8B-/	.	.	.	.	.
2r	.	8e-/	.	4G/ 4e-/	.	.	.
.	.	8B-/J)	.	.	.	16cc\LL	.
.	.	.	.	.	.	16dd\JJ	.
.	.	(8G/L	.	4G/ 4e-/	.	8ee-\)	.
.	.	8B-/	.	.	.	8r	.
(4GG/	.	8e-/	.	4r	.	(8eee-\L	.
.	.	8B-/J)	.	.	.	8gg\J)	.
=184	=184	=184	=184	=184	=184	=184	=184
2AA-/)	.	(8en\L	.	(8g/L	.	(8gg\L	.
.	.	8f\	.	8f/	.	8ff\	.
.	.	8c\	.	8a-/	.	8aa-\	.
.	.	8A-\J)	.	8cc/J)	.	8ccc\J)	.
2BB-/	.	(4G/	.	(4e-/	.	(4ee-\	.
.	.	4D/)	.	8g/L	.	8gg\L	.
.	.	.	.	8f/J)	.	8ff\J)	.
=185	=185	=185	=185	=185	=185	=185	=185
2.BBn/	.	2.G/ 2.d/	f	2.G/ 2.d/	.	2.g\ 2.gg\	.
4r	f	4r	f	(8.g/L	.	(8.gg\L	f
.	.	.	.	16f#/Jk	.	16ff#\Jk	pp
=186	=186	=186	=186	=186	=186	=186	=186
2r	.	2r	pp	8g/)	.	8gg\)	.
.	.	.	.	8r	.	8r	.
.	.	.	.	(8.g/L	.	(8.gg\L	.
.	.	.	.	16f#/Jk	.	16ff#\Jk	.
4r	.	4r	.	8g/)	.	8gg\)	.
.	.	.	.	8r	.	8r	.
(4E-\	p	(4E-/	.	(4g/	.	(4gg\	.
=187	=187	=187	=187	=187	=187	=187	=187
2AA-/	.	(8En/L)	.	(8b-/L)	.	(8bb-\L)	.
.	.	8F/	.	8a-/	.	8aa-\	.
.	.	8G/	.	8g/	.	8gg\	.
.	.	8A-/J)	.	8f/J)	.	8ff\J)	.
2BB-/)	.	(4G/	.	(4e-/	.	(4ee-\	.
.	.	4D/)	.	4f/)	.	4ff\)	.
=188	=188	=188	=188	=188	=188	=188	=188
4EE-/	.	4E-/	.	8g/	.	8gg\	.
.	.	.	.	8r	.	8r	.
2r	.	2r	.	(8.g/L	.	(8.gg\L	.
.	.	.	.	16f#/Jk	.	16ff#\Jk	.
.	.	.	.	8g/)	.	8gg\)	.
.	.	.	.	8r	.	8r	.
(4E-\	.	(4E-/	.	(4g/	.	(4gg\	.
=189	=189	=189	=189	=189	=189	=189	=189
2AA-/	.	(8En/L)	.	(8b-/L)	.	(8bb-\L)	.
.	.	8F/	.	8a-/	.	8aa-\	.
.	.	8G/	.	8g/	.	8gg\	.
.	.	8A-/J)	.	8f/J)	.	8ff\J)	.
2BB-/)	.	(4G/	.	(4e-/	.	(4ee-\	.
.	.	.	.	gq/	.	ggq/	.
.	.	8B-/L	.	4f/)	.	4ff\)	.
.	.	8A-/J)	.	.	.	.	.
=190	=190	=190	=190	=190	=190	=190	=190
4E-\	.	4G/	.	4e-/	.	4ee-\	.
2r	.	2r	.	2r	.	2r	.
(4EE-/	.	(4E-/	.	(4e-/	.	(4e-/	.
=191	=191	=191	=191	=191	=191	=191	=191
2DD/	f	2D/	f	2d/	.	2d/	f
4FF/	.	4F/	.	4f/	.	4f/	.
4AA-/)	.	4A-/)	.	4a-/)	.	4a-/)	.
=192	=192	=192	=192	=192	=192	=192	=192
(4GG/	.	(4G/	.	(4g/	.	(4g/	.
4BB-/)	.	4B-/)	.	4b-\)	.	4b-\)	.
4r	.	4r	.	4r	.	4r	.
(4E-\	p	(4B-/	p	(4e-/	.	(4g/	p
=193	=193	=193	=193	=193	=193	=193	=193
2D\	.	2.B-/	p	2f/	.	2a-/	.
4F\	.	.	.	4d/	.	4f/	.
4A-\)	.	4B-/)	.	4B-/)	.	4d/)	.
=194	=194	=194	=194	=194	=194	=194	=194
(4G\	.	12B-/L	.	2B-/	.	(4e-/	.
.	.	12B-/	.	.	.	.	.
.	.	12B-/J	.	.	.	.	.
4B-\)	.	12B-/L	.	.	.	4B-/)	.
.	.	12B-/	.	.	.	.	.
.	.	12B-/J	.	.	.	.	.
4r	.	12B-/L	.	4r	.	4r	.
.	.	12B-/	f	.	.	.	.
.	.	12B-/J	.	.	.	.	.
(4EE-/	.	12B-/L	.	(4g/	.	(4gg\	.
.	.	12B-/	.	.	.	.	.
.	.	12B-/J	.	.	.	.	.
=195	=195	=195	=195	=195	=195	=195	=195
2DD/	f	12B-/L	.	12a-/L)	f	12aa-\L)	f
.	.	12B-/	.	12b-'/	.	12bb-'\	.
.	.	12B-/J	.	12a-'/J	.	12aa-'\J	.
.	.	12B-/L	.	12g'/L	.	12gg'\L	.
.	.	12B-/	.	12f'/	.	12ff'\	.
.	.	12B-/J	.	12e-'/J	.	12ee-'\J	.
4FF/	.	12B-/L	.	12d'/L	.	12dd'\L	.
.	.	12B-/	.	12e-'/	.	12ee-'\	.
.	.	12B-/J	.	12c'/J	.	12cc'\J	.
4AA-/)	.	12B-/L	.	12B-'/L	.	12b-'\L	.
.	.	12B-/	.	12c'/	.	12cc'\	.
.	.	12B-/J	.	12d'/J	.	12dd'\J	.
=196	=196	=196	=196	=196	=196	=196	=196
(4GG/	.	4B-/	.	12e-/L	.	(4ee-\	.
.	.	.	.	12B-'/	.	.	.
.	.	.	.	12B-'/J	.	.	.
4BB-/)	.	2r	.	12B-/L	.	4b-\)	.
.	.	.	.	12B-/	.	.	.
.	.	.	.	12B-/J	.	.	.
2r	.	.	.	12B-/L	.	4r	.
.	.	.	.	12B-/	.	.	.
.	.	.	.	12B-/J	.	.	.
.	.	(4E-/	p	12B-/L	.	(4gg\	p
.	.	.	.	12B-/	.	.	.
.	.	.	.	12B-/J	.	.	.
=197	=197	=197	=197	=197	=197	=197	=197
1r	p	2D/	.	12B-/L	.	12aa-\L)	.
.	.	.	.	12B-/	.	12bb-'\	.
.	.	.	.	12B-/J	.	12aa-'\J	.
.	.	.	.	12B-/L	.	12gg'\L	.
.	.	.	.	12B-/	.	12ff'\	.
.	.	.	.	12B-/J	.	12ee-'\J	.
.	.	4F/	.	12B-/L	.	12dd'\L	.
.	.	.	.	12B-/	.	12ee-'\	.
.	.	.	.	12B-/J	.	12cc'\J	.
.	.	4A-/)	.	12B-/L	.	12b-'\L	.
.	.	.	.	12B-/	.	12cc'\	.
.	.	.	.	12B-/J	.	12dd'\J	.
=198	=198	=198	=198	=198	=198	=198	=198
4r	.	4G'/	.	2B-/	.	4ee-'\	.
(4BB-/	.	(4B-/	.	.	.	(4b-/	.
4GG/	f	4G/	f	4B-/	.	4g/	f
4FF/)	.	4F/)	f	4Bn/	.	4f/)	.
=199	=199	=199	=199	=199	=199	=199	=199
(2EEn/	.	(2En/	.	2c/	.	(2en/	.
4GG/	.	4G/	.	2c/	.	4g/	.
4BB-/)	.	4B-/)	.	.	.	4b-/)	.
=200	=200	=200	=200	=200	=200	=200	=200
(4AA-/	.	(4A-/	.	2c/	.	(4a-/	.
4C/)	.	4c\)	.	.	.	4cc\)	.
2r	.	4r	.	2c/	.	4r	.
.	.	(4F/	.	.	.	(4aa-\	.
=201	=201	=201	=201	=201	=201	=201	=201
1r	p	2En/	.	2c/	p	12ccc\L)	p
.	.	.	.	.	.	12ddd-'\	.
.	.	.	.	.	.	12ccc'\J	.
.	.	.	.	.	.	12bb-'\L	.
.	.	.	.	.	.	12aa-'\	.
.	.	.	.	.	.	12gg'\J	.
.	.	4G/	.	2c/	.	12ff'\L	.
.	.	.	.	.	.	12een'\	.
.	.	.	.	.	.	12dd'\J	.
.	.	4B-/)	.	.	.	12cc'\L	.
.	.	.	.	.	.	12dd'\	.
.	.	.	.	.	.	12ee'\J	.
=202	=202	=202	=202	=202	=202	=202	=202
2r	.	(4A-/	.	2c/	.	(4ff\	.
.	.	4c\)	.	.	.	4cc\)	.
4r	.	4r	.	4c/	.	4r	.
(4AA-/	f	(4A-/	f	4d/	.	(4A-/	.
=203	=203	=203	=203	=203	=203	=203	=203
2GG/	f	2G/	.	2e-/	.	2G/	f
4BB-/	.	4B-/	.	2e-/	.	4B-/	.
4D-\)	.	4d-\)	.	.	.	4d-/)	.
=204	=204	=204	=204	=204	=204	=204	=204
(4C/	.	(4c\	.	2e-/	.	(4c/	.
4E-\)	.	4e-\)	.	.	.	4e-/)	.
4r	.	4r	.	2e-/	.	4r	.
(4A-\	.	(4A-/	.	.	.	(4cc\	.
=205	=205	=205	=205	=205	=205	=205	=205
2G\	.	2G/	.	12e-/L	.	12dd-\L)	.
.	.	.	.	12e-/	.	12ee-'\	.
.	.	.	.	12e-/J	.	12dd-'\J	.
.	.	.	.	12e-/L	.	12cc'\L	.
.	.	.	.	12e-/	.	12b-'\	.
.	.	.	.	12e-/J	.	12a-'\J	.
4B-\	.	4B-/	.	12e-/L	.	12g'/L	.
.	.	.	.	12e-/	.	12a-'/	.
.	.	.	.	12e-/J	.	12f'/J	.
4d-\)	.	4d-\)	.	12e-/L	.	12e-'/L	.
.	.	.	.	12e-/	.	12f'/	.
.	.	.	.	12e-/J	.	12g'/J	.
=206	=206	=206	=206	=206	=206	=206	=206
(4c\	.	12c\L	.	4e-/	.	(4a-/	.
.	.	12e-\	.	.	.	.	.
.	.	12e-\J	.	.	.	.	.
4e-\)	.	12e-\L	.	2r	.	4e-/)	.
.	.	12e-\	.	.	.	.	.
.	.	12e-\J	.	.	.	.	.
2r	.	12e-\L	p	.	.	4r	.
.	.	12e-\	.	.	.	.	.
.	.	12e-\J	.	.	.	.	.
.	.	12e-\L	.	(4A-/	p	(4cc\	.
.	.	12e-\	.	.	.	.	.
.	.	12e-\J	.	.	.	.	.
=207	=207	=207	=207	=207	=207	=207	=207
1r	.	12e-\L	.	2G/	.	12dd-\L)	p
.	.	12e-\	.	.	.	12ee-\	.
.	.	12e-\J	.	.	.	12dd-'\J	.
.	.	12e-\L	.	.	.	12cc'\L	.
.	.	12e-\	.	.	.	12b-'\	.
.	.	12e-\J	.	.	.	12a-'\J	.
.	.	12e-\L	.	4B-/	.	12g'/L	.
.	.	12e-\	.	.	.	12a-'/	.
.	.	12e-\J	.	.	.	12f'/J	.
.	.	12e-\L	.	4d-/)	.	12e-'/L	.
.	.	12e-\	.	.	.	12f'/	.
.	.	12e-\J	.	.	.	12g'/J	.
=208	=208	=208	=208	=208	=208	=208	=208
4r	.	8.e-\	.	4c'/	.	4a-'/	.
.	.	16r	.	.	.	.	.
(4c\	f	8.en\	f	(4cc\	.	(4cc\	.
.	.	16r	.	.	.	.	.
4A-\	.	4f\	.	4a-/	f	4a-/	f
4F\)	.	4a-\	.	4f/)	.	4f/)	.
=209	=209	=209	=209	=209	=209	=209	=209
(2D\	.	12b-\L	.	(2dn/	.	(2dn/	.
.	.	12B-\	.	.	.	.	.
.	.	12B-\J	.	.	.	.	.
.	.	4B-/	.	.	.	.	.
4F\	.	2B-/	.	4f/	.	4f/	.
4A-\)	.	.	.	4a-/)	.	4a-/)	.
=210	=210	=210	=210	=210	=210	=210	=210
(4G-\	.	2B-/	.	(4g-/	.	(4g-/	.
4B-\)	.	.	.	4b-\)	.	4b-\)	.
2r	.	2B-/	.	4r	.	4r	.
.	.	.	.	(4e-/	.	(4ee-\	.
=211	=211	=211	=211	=211	=211	=211	=211
1r	.	2B-/	p	2d/	.	2dd\	p
.	.	2B-/	.	4f/	.	4ff\	.
.	.	.	.	4a-/)	.	4aa-\)	.
=212	=212	=212	=212	=212	=212	=212	=212
1r	.	2B-/	.	(4g-/	.	(4gg-\	.
.	.	.	.	4b-\	.	4bb-\	.
.	.	4G-/	.	4g-/	.	4gg-\	.
.	.	4E-/	.	4e-/)	.	4ee-\)	.
=213	=213	=213	=213	=213	=213	=213	=213
(4DD/	.	(4D/	.	1B-	.	1b-	.
4FF/)	pp	4F/)	pp	.	.	.	.
4r	.	4r	.	.	.	.	.
4AA-/	.	4A-/	.	.	.	.	.
=214	=214	=214	=214	=214	=214	=214	=214
(4GG-/	.	(4G-/	.	(4g-/	.	(4g-/	pp
4BB-/	.	4B-/	.	4b-/	.	4b-/	.
4GG-/	.	4G-/	.	4g-/	.	4g-/	.
4EE-/)	.	4E-/)	.	4e-/)	.	4e-/)	.
=215	=215	=215	=215	=215	=215	=215	=215
2BB-/	.	8B-/	.	2B-/	.	2B-/	.
.	.	4B-/	.	.	.	.	.
.	.	4B-/	.	.	.	.	.
2r	.	.	.	2r	.	2r	.
.	.	4B-/	.	.	.	.	.
.	.	[8B-/	.	.	.	.	.
=216	=216	=216	=216	=216	=216	=216	=216
1r	.	8B-/]	.	1r	.	2r	.
.	.	4B-/	.	.	.	.	.
.	.	4B-/	.	.	.	.	.
.	.	.	.	.	.	4r	.
.	.	4B-/	.	.	.	.	.
.	.	.	.	.	.	4B-/	.
.	.	8B-/	.	.	.	.	.
=217	=217	=217	=217	=217	=217	=217	=217
(2E-\	.	(2E-/	.	1B-	p	(2gn/	.
2D\)	.	2F/)	.	.	.	2b-\)	.
=218	=218	=218	=218	=218	=218	=218	=218
4C/	.	(4G/	.	(4G/	.	(4e-/	.
(2C/	.	2E-/)	.	2A-/	.	2a-/	.
4BB-/)	.	4E-/	.	4B-/)	.	4g/)	.
=219	=219	=219	=219	=219	=219	=219	=219
(2AA-/	.	(2D/	.	(2.B-/	.	(8g/L	.
.	.	.	.	.	.	8f/	.
.	.	.	.	.	.	8a-/	.
.	.	.	.	.	.	8f/J)	.
4GG/)	.	4E-/)	.	.	.	(8e-/L	.
.	.	.	.	.	.	8g/	.
4E-\	.	4G/	.	8c/L	.	8cc/	.
.	.	.	.	8B-/J)	.	8b-/J)	.
=220	=220	=220	=220	=220	=220	=220	=220
(2D\	.	(2F/	.	[2B-/	.	(4.b-/	.
.	.	.	.	.	.	8a-/	.
4E-\)	.	4G/)	.	4B-/]	.	8g/)	.
.	.	.	.	.	.	8r	.
4r	.	4r	.	4r	.	(4B-/	.
=221	=221	=221	=221	=221	=221	=221	=221
2E-'\	.	4r	.	4r	.	2g'/)	.
.	.	4G'/	.	4B-'/	.	.	.
2D'\	.	4r	.	4r	.	2b-'\	.
.	.	4F'/	.	4B-'/	.	.	.
=222	=222	=222	=222	=222	=222	=222	=222
4C/	.	4r	.	4r	.	(4e-/	.
(2C/	.	[2E-/	.	(2A-/	.	2a-/	.
4BB-/)	.	4E-/]	.	4B-/)	.	4g/)	pp
=223	=223	=223	=223	=223	=223	=223	=223
(2AA-/	.	(2D/	.	(4c-/	.	(8g/L	.
.	.	.	.	.	.	8f/	.
.	.	.	.	2B-/)	.	8a-/	.
.	.	.	.	.	.	8f/J)	.
4GG/)	.	4E-/)	.	.	.	(8e-/L	.
.	.	.	.	.	.	8g/	.
4E-\	.	4G/	.	8cn/L	.	8cc/	.
.	.	.	.	8B-/J	.	8b-/J)	.
=224	=224	=224	=224	=224	=224	=224	=224
(2D\	.	[2B-/	.	(2f/	.	[4b-\	.
.	.	.	.	.	.	(12b-\L]	.
.	.	.	.	.	.	12cc\	.
.	.	.	.	.	.	12a-/J	.
8E-\)	.	8B-/]	.	8e-/)	.	8g'/)	.
8r	.	8r	.	8r	.	8r	.
(4G^\	.	(4B-^/	.	(4d-^/	.	(4en^/	.
=225	=225	=225	=225	=225	=225	=225	=225
4A-\)	.	4A-/)	.	4c/)	.	4f/)	.
4r	.	4r	.	8r	.	8r	.
.	.	.	.	8c/	.	8cc\	p
2r	.	2r	p	(8Bn/L	.	(8bn\L	.
.	.	.	.	8c/	.	8cc\	.
.	.	.	.	8f/	.	8ff\	.
.	.	.	.	8en/J)	.	8een\J)	.
=226	=226	=226	=226	=226	=226	=226	=226
4r	.	4r	.	(8g/L	.	(8gg\L	.
.	.	.	.	8f/J)	.	8ff\J)	.
4AA-'/	.	4F'/	.	4c'/	.	2r	.
4r	.	4r	.	4r	.	.	.
(4G^\	.	(4B-^/	.	(4d-^/	.	(8.en^/L	.
.	.	.	.	.	.	16g/Jk)	.
=227	=227	=227	=227	=227	=227	=227	=227
4A-\)	.	4A-/)	.	4c/)	.	4f/	.
4r	.	8r	.	4r	.	8r	.
.	.	8c\	.	.	.	8cc\	.
2r	.	(8f\L	.	2r	.	(8ff\L	.
.	.	8en\	.	.	.	8een\	.
.	.	8g\	.	.	.	8gg\	.
.	.	8f\J)	.	.	.	8ff\J)	.
=228	=228	=228	=228	=228	=228	=228	=228
4r	.	(8b-\L	.	4r	.	(8bb-\L	.
.	.	8a-\J)	.	.	.	8aa-\J)	.
4AA-'/	.	4f'\	.	4c'/	.	2r	.
4r	.	4r	.	4r	.	.	.
(4G^\	.	4B-^/	.	(4d-^/	.	(12en^/L	.
.	.	.	.	.	.	12f/	.
.	.	.	.	.	.	12g/J)	.
=229	=229	=229	=229	=229	=229	=229	=229
4A-\)	.	4A-/	.	4c/)	.	4f/	.
4r	.	4r	.	4r	.	8r	.
.	.	.	.	.	.	8cc\	.
2r	.	2r	.	4r	.	(8bn\L	.
.	.	.	.	.	.	8cc\	.
.	.	.	.	8r	.	8dd-\	.
.	.	.	.	8c/	.	8cc\J)	.
=230	=230	=230	=230	=230	=230	=230	=230
2r	.	4r	.	(8f/L	.	(8ff\L	.
.	.	.	.	8en/	.	8een\	.
.	.	8r	.	8g/	.	8gg\	.
.	.	8f\	.	8f/J)	.	8ff\J)	.
4r	.	(8b-\L	.	(8b-\L	.	(8bb-\L	.
.	.	8a-\	.	8a-\	.	8aa-\	.
(4A-^\	.	8dd\	.	8ddn\	.	8dddn\	.
.	.	8cc\J)	.	8cc\J)	.	8ccc\J)	.
=231	=231	=231	=231	=231	=231	=231	=231
1B-)	.	(2g\	.	(2b-\	.	2ee-\	.
.	.	.	.	.	.	(ggq/	.
.	.	2a-\)	.	2dd\)	.	(8.ff\L)	.
.	.	.	.	.	.	16een\k	.
.	.	.	.	.	.	8.ff\	.
.	.	.	.	.	.	16bb-\Jk)	.
=232	=232	=232	=232	=232	=232	=232	=232
8.E-\L	.	8.g\L	.	8.ee-/L	.	4ee-\	.
16E-\Jk	pp	16G\Jk	pp	16B-/Jk	.	.	.
8.E-\L	.	8.G/L	.	8.B-/L	.	2r	.
16E-\Jk	.	16G/Jk	.	16B-/Jk	.	.	.
8.E-\L	.	8.G/L	.	8.B-/L	.	.	.
16E-\Jk	.	16G/Jk	.	16B-/Jk	.	.	.
8.E-\L	.	8.G/L	.	8.B-/L	.	(4ee-\	pp
16E-\Jk	.	16G/Jk	.	16B-/Jk	.	.	.
=233	=233	=233	=233	=233	=233	=233	=233
8.E-\L	.	8.A-/L	.	8.Bn/L	.	2dd\	.
16E-\Jk	.	16A-/Jk	.	16B/Jk	.	.	.
8.E-\L	.	8.A-/L	.	8.B/L	.	.	.
16E-\Jk	.	16A-/Jk	.	16B/Jk	.	.	.
8.E-\L	.	8.A-/L	.	8.B/L	.	4ff\	.
16E-\Jk	.	16A-/Jk	.	16B/Jk	.	.	.
8.E-\L	.	8.A-/L	.	8.B/L	.	4dd\)	.
16E-\Jk	.	16A-/Jk	.	16B/Jk	.	.	.
=234	=234	=234	=234	=234	=234	=234	=234
8.E-\L	.	8.G/L	.	8.B-/L	.	(4ee-\	.
16E-\Jk	.	16G/Jk	.	16B-/Jk	.	.	.
8.E-\L	.	8.G/L	.	8.B-/L	.	4gg\)	.
16E-\Jk	.	16G/Jk	.	16B-/Jk	.	.	.
8.E-\L	.	8.G/L	.	8.B-/L	.	4r	.
16E-\Jk	.	16G/Jk	.	16B-/Jk	.	.	.
8.E-\L	.	8.G/L	.	8.B-/L	.	(4ee-\	.
16E-\Jk	.	16G/Jk	.	16B-/Jk	.	.	.
=235	=235	=235	=235	=235	=235	=235	=235
8.E-\L	.	8.A-/L	.	8.Bn/L	.	2aa-\	.
16E-\Jk	.	16A-/Jk	.	16B/Jk	.	.	.
8.E-\L	.	8.A-/L	.	8.B/L	.	.	.
16E-\Jk	.	16A-/Jk	.	16B/Jk	.	.	.
8.E-\L	.	8.A-/L	.	8.B/L	.	4ff\	.
16E-\Jk	.	16A-/Jk	.	16B/Jk	.	.	.
8.E-\L	.	8.A-/L	.	8.B/L	.	4dd\)	.
16E-\Jk	.	16A-/Jk	.	16B/Jk	.	.	.
=236	=236	=236	=236	=236	=236	=236	=236
8.E-\L	.	8.G/L	.	8.B-/L	.	(4ee-\	.
16E-\Jk	.	16G/Jk	.	16B-/Jk	.	.	.
8.E-\L	.	8.G/L	.	8.B-/L	.	4b-\)	.
16E-\Jk	.	16G/Jk	.	16B-/Jk	.	.	.
8.E-\L	.	8.G/L	.	8.B-/L	.	4r	.
16E-\Jk	.	16G/Jk	.	16B-/Jk	.	.	.
8.E-\L	.	8.G/L	.	8.B-/L	.	(4e-/	.
16E-\Jk	.	16G/Jk	.	16B-/Jk	.	.	.
=237	=237	=237	=237	=237	=237	=237	=237
8.E-\L	.	8.A-/L	.	8.Bn/L	.	2d/	.
16E-\Jk	.	16A-/Jk	.	16B/Jk	.	.	.
8.E-\L	.	8.A-/L	.	8.B/L	.	.	.
16E-\Jk	.	16A-/Jk	.	16B/Jk	.	.	.
8.E-\L	.	8.A-/L	.	8.B/L	.	4f/	.
16E-\Jk	.	16A-/Jk	.	16B/Jk	.	.	.
8.E-\L	.	8.A-/L	.	8.B/L	.	4d/)	.
16E-\Jk	.	16A-/Jk	.	16B/Jk	.	.	.
=238	=238	=238	=238	=238	=238	=238	=238
8.E-\L	.	8.G/L	.	8.B-/L	.	(4e-/	.
16E-\Jk	.	16G/Jk	.	16B-/Jk	.	.	.
8.E-\L	.	8.G/L	.	8.B-/L	.	4g/)	.
16E-\Jk	.	16G/Jk	.	16B-/Jk	.	.	.
8.E-\L	.	8.G/L	.	8.B-/L	.	4r	.
16E-\Jk	.	16G/Jk	.	16B-/Jk	.	.	.
8.E-\L	.	8.G/L	.	8.B-/L	.	(4ee-\	.
16E-\Jk	.	16G/Jk	.	16B-/Jk	.	.	.
=239	=239	=239	=239	=239	=239	=239	=239
8.E-\L	.	8.A-/L	.	8.Bn/L	.	2aa-\	.
16E-\Jk	.	16A-/Jk	.	16B/Jk	.	.	.
8.E-\L	.	8.A-/L	.	8.B/L	.	.	.
16E-\Jk	.	16A-/Jk	.	16B/Jk	.	.	.
8.E-\L	.	8.A-/L	.	8.B/L	.	4ff\	.
16E-\Jk	.	16A-/Jk	.	16B/Jk	.	.	.
8.E-\L	.	8.A-/L	.	8.B/L	.	4dd\)	.
16E-\Jk	.	16A-/Jk	.	16B/Jk	.	.	.
=240	=240	=240	=240	=240	=240	=240	=240
4E-\	.	8.G/L	.	8.B-/L	.	4ee-\	.
.	.	16E-/Jk	.	16e-/Jk	.	.	.
2r	.	8.E-/L	.	8.e-/L	.	2r	.
.	.	16E-/Jk	.	16e-/Jk	.	.	.
.	.	4E-/	.	4e-/	.	.	.
(4C/	ff	(4c\	ff	(4cc\	ff	(4cc\	.
=241	=241	=241	=241	=241	=241	=241	=241
2D-^\	.	2d-^\	.	2dd-^\	.	2dd-^\	ff
4BB-/	.	4B-/	.	4b-\	.	4b-\	.
4GG/)	.	4G/)	.	4g/)	.	4g/)	.
=242	=242	=242	=242	=242	=242	=242	=242
(4AA-/	.	(4A-/	.	(4a-/	.	(4a-/	.
4C/)	.	4c\)	.	4cc\)	.	2cc\)	.
4r	.	4r	.	4r	.	.	.
(4An^\	.	[4e-^\	.	(4f#^/	.	(4cc^\	.
=243	=243	=243	=243	=243	=243	=243	=243
1B-	p	1e-]	p	1g)	p	2b-\	p
.	.	.	.	.	.	4ee-\	.
.	.	.	.	.	.	4gg\)	.
=244	=244	=244	=244	=244	=244	=244	=244
1BB-)	.	(4B-/	.	(4d/	.	(4aa-\	.
.	.	2d\	.	2f/	.	2ff\	.
.	.	4f\)	.	4a-/	.	4dd\)	.
=245	=245	=245	=245	=245	=245	=245	=245
4E-\	.	4e-\	.	4g/)	.	4ee-\	.
2r	.	(4G/	.	2r	.	2r	.
.	.	4B-/	.	.	.	.	.
(4C/	ff	4c\)	ff	(4c/	.	(4cc\	ff
=246	=246	=246	=246	=246	=246	=246	=246
2D-^\	.	(2d-^\	ff	2d-^/	.	2dd-^\	.
4BB-/	.	4B-/	.	4B-/	.	4b-\	.
4GG/)	.	4G/)	.	4G/)	.	4g/)	.
=247	=247	=247	=247	=247	=247	=247	=247
(4AA-/	.	(4A-/	.	(4A-/	.	(4a-/	.
4C/)	.	4c\)	.	4c/)	.	2cc\)	.
4r	.	4r	.	4r	.	.	.
(4An^\	p	[4e-^\	.	(4f#^/	.	(4cc^\	.
=248	=248	=248	=248	=248	=248	=248	=248
(1B-)	.	1e-]	p	1g)	.	2b-\	p
.	.	.	.	.	.	4ee-\	.
.	.	.	.	.	.	4gg\)	.
=249	=249	=249	=249	=249	=249	=249	=249
1BB-)	.	(4B-/	.	(4d/	.	(4aa-\	.
.	.	2d\	.	2f/	.	2ff\	.
.	.	4f\)	.	4a-/)	.	4ddn\)	.
=250	=250	=250	=250	=250	=250	=250	=250
[1EE-	pp	4e-'\	.	4g'/	.	2ee-\	.
.	.	(4G/	pp	(4B-/	.	.	.
.	.	.	.	.	.	(fq/	.
.	.	4F/	.	4A-/	pp	(12e-/L)	.
.	.	.	.	.	.	12d/	.
.	.	.	.	.	.	(12e-/J)	.
.	.	.	.	.	.	fq/)	.
.	.	4E-/)	.	4G/)	.	(12e-/L	.
.	.	.	.	.	.	12d/	.
.	.	.	.	.	.	12e-/J)	.
=251	=251	=251	=251	=251	=251	=251	=251
1EE-_	pp	(2F^/	.	(2A-^/	.	2a-^/	.
.	.	4G/	.	4B-/	.	(8g/L	.
.	.	.	.	.	.	8f/	.
.	.	4A-/)	.	4Bn/)	.	8e-/	.
.	.	.	.	.	.	8d/J)	.
=252	=252	=252	=252	=252	=252	=252	=252
1EE-_	.	4G'/	.	4B-'/	.	2e-/	.
.	.	(4G/	.	(4B-/	.	.	.
.	.	.	.	.	.	(fq/	.
.	.	4F/	.	4A-/	.	(12e-/L)	.
.	.	.	.	.	.	12d/	.
.	.	.	.	.	.	12e-/J)	.
.	.	.	.	.	.	(fq/	.
.	.	4E-/)	.	4G/)	.	(12e-/L)	.
.	.	.	.	.	.	12d/	.
.	.	.	.	.	.	12e-/J)	.
=253	=253	=253	=253	=253	=253	=253	=253
1EE-_	.	(2F^/	.	(2A-^/	.	(4b-^\	.
.	.	.	.	.	.	4a-^/)	.
.	.	4G/	.	4B-/	.	(8g/L	.
.	.	.	.	.	.	8f/	.
.	.	4A-/)	.	4c-/)	.	8e-/	.
.	.	.	.	.	.	8d/J)	.
=254	=254	=254	=254	=254	=254	=254	=254
4EE-/]	.	4G/	.	4B-/	.	4e-/	.
4r	.	4r	.	4r	.	4r	.
4E-\	ff	4E-/ 4B-/ 4e-/	ff	4G/ 4e-/ 4ee-/	ff	4G/ 4e-/ 4ee-/	.
4r	.	4r	.	4r	.	4r	.
=255	=255	=255	=255	=255	=255	=255	=255
4E-\	.	4E-/ 4B-/ 4e-/	.	4G/ 4e-/ 4ee-/	.	4G/ 4e-/ 4ee-/	.
4r	.	4r	.	4r	.	4r	.
2r	.	2r	.	2r	.	2r	.
==	==	==	==	==	==	==	==
*-	*-	*-	*-	*-	*-	*-	*-
!!!ENC: Craig Stuart Sapp
!!!END: 2004/09/07/
